; HEADER_BLOCK_START
; generated by AnycubicSlicerNext 1.3.9.4 on 2026-05-13 at 11:47:45
; total layer number: 166
; filament_density: 1.24
; filament_diameter: 1.75
; max_z_height: 20.00
; exclude_object: 1
; model_instances: 1
; source_info: {"models":[{"file_source":0,"mo_file_id":-1,"name":"BASE.STL_id_0_copy_0"}],"models_from":0,"plate_index":1,"slice_paras_process":1,"software_version":"AnycubicSlicerNext 1.3.9.4 20260319225535"}
; paint_info = [{"material_type":"PLA","paint_color":[105,164,255],"paint_index":0}]
; project_info = {"flush_multiplier":1.0,"flush_volumes_chan_multipliers":[1.0,1.0,1.0,1.0],"flush_volumes_matrix":[0.0],"flush_volumes_vector":[140.0,140.0]}
; flush_multiplier_calculate_by_acnext: 1
; test_mode: 0
; HEADER_BLOCK_END

; THUMBNAIL_BLOCK_START
; THUMBNAIL_BLOCK_END

; THUMBNAIL_BLOCK_START
; THUMBNAIL_BLOCK_END

; external perimeters extrusion width = 0.42mm
; perimeters extrusion width = 0.45mm
; infill extrusion width = 0.45mm
; solid infill extrusion width = 0.42mm
; top infill extrusion width = 0.42mm
; support material extrusion width = 0.42mm
; first layer extrusion width = 0.50mm

; EXECUTABLE_BLOCK_START
EXCLUDE_OBJECT_DEFINE NAME=BASE.STL_id_0_copy_0 CENTER=127.5,127.5 POLYGON=[[72.2452,113.257],[113.257,72.2452],[133.257,72.2452],[182.755,121.743],[182.755,141.743],[141.743,182.755],[121.743,182.755],[72.2452,133.257],[72.2452,113.257]]
M73 P0 R123.9 QuietR185.9 SportR113.7 ; NormalR7436.416s
M201 X20000 Y20000 Z1000 E20000
M203 X600 Y600 Z15 E600
M204 P20000 R20000 T20000
M205 X20.00 Y20.00 Z20.00 E20.00
;TYPE:Custom
G9111 bedTemp=60 extruderTemp=220
M117
M900 K0.051
; print_bed_min = 0,0
; print_bed_max = 255,255
; print_bed_size = 255,255
; first_layer_print_min = 70.2452,70.2452
; first_layer_print_max = 184.755,184.755
; first_layer_print_size = 114.51,114.51
G90
G21
M83 ; use relative distances for extrusion
; EXECUTABLE_BLOCK_HEAD
; filament start gcode
M75 ; The first extruder is ready.
M106 S0
;LAYER_CHANGE
;Z:0.2
;HEIGHT:0.2
; BEFORE_LAYER_CHANGE 0 @ 0.2mm
G1 E-1 F3600
; AFTER_LAYER_CHANGE 0 @ 0.2mm
M204 S500
SET_VELOCITY_LIMIT SQUARE_CORNER_VELOCITY=9
EXCLUDE_OBJECT_START NAME=BASE.STL_id_0_copy_0
G1 Z0.200 ; for object exclusion
G1 X96.119 Y157.768 F21000
G1 Z.6
G1 Z.2
G1 E1 F3600
;TYPE:Support
;WIDTH:0.5
G1 F3000
G1 X95.894 Y158.515 E.02847
G1 X95.18 Y159.855 E.05541
G1 X94.218 Y161.031 E.05542
G1 X93.045 Y161.996 E.05543
G1 X91.705 Y162.714 E.05544
G1 X90.251 Y163.157 E.05545
G1 X88.739 Y163.307 E.05546
G1 X87.226 Y163.16 E.05547
G1 X85.77 Y162.719 E.05548
G1 X84.429 Y162.003 E.05548
G1 X83.253 Y161.038 E.05548
G1 X82.289 Y159.863 E.05548
G1 X81.572 Y158.522 E.05548
G1 X81.131 Y157.067 E.05548
G1 X80.983 Y155.554 E.05547
G1 X81.134 Y154.041 E.05546
G1 X81.576 Y152.587 E.05545
G1 X82.294 Y151.248 E.05544
G1 X83.259 Y150.074 E.05543
G1 X84.434 Y149.112 E.05542
G1 X85.774 Y148.398 E.0554
G1 X86.523 Y148.171 E.02854
G1 X96.071 Y157.719 E.49267
G1 X95.504 Y158.808 F21000
G1 F3000
G1 X95.504 Y157.735 E.03917
G1 X94.997 Y157.227 E.02621
G1 X94.997 Y159.324 E.07652
G1 X94.836 Y159.626 E.01248
G1 X94.489 Y160.05 E.01999
G1 X94.489 Y156.719 E.12154
G1 X93.981 Y156.211 E.02621
G1 X93.981 Y160.671 E.16271
G1 X93.925 Y160.739 E.00321
G1 X93.473 Y161.111 E.02136
G1 X93.473 Y155.703 E.1973
G1 X92.965 Y155.195 E.02621
G1 X92.965 Y161.529 E.23108
G1 X92.815 Y161.653 E.00711
G1 X92.457 Y161.844 E.01479
G1 X92.457 Y154.688 E.26112
G1 X91.949 Y154.18 E.02621
G1 X91.949 Y162.116 E.28958
G1 X91.547 Y162.332 E.01667
G1 X91.442 Y162.364 E.00401
G1 X91.442 Y153.672 E.31716
G1 X90.934 Y153.164 E.02621
G1 X90.934 Y162.519 E.34133
G1 X90.426 Y162.674 E.01937
G1 X90.426 Y152.656 E.3655
G1 X89.918 Y152.148 E.02621
G1 X89.918 Y162.777 E.38779
G1 X89.41 Y162.827 E.01862
G1 X89.41 Y151.64 E.40816
G1 X88.902 Y151.133 E.02621
G1 X88.902 Y162.878 E.42854
G1 X88.738 Y162.894 E.006
G1 X88.394 Y162.86 E.01262
G1 X88.394 Y150.625 E.44643
G1 X87.886 Y150.117 E.02621
G1 X87.886 Y162.811 E.46315
G1 X87.379 Y162.761 E.01862
G1 X87.379 Y149.609 E.47987
G1 X86.871 Y149.101 E.02621
G1 X86.871 Y162.622 E.49334
G1 X86.363 Y162.469 E.01936
G1 X86.363 Y148.649 E.50421
G1 X85.932 Y148.78 E.01643
G1 X85.855 Y148.821 E.00317
G1 X85.855 Y162.298 E.49173
G1 X85.347 Y162.027 E.02101
G1 X85.347 Y149.091 E.47196
G1 X84.839 Y149.362 E.021
G1 X84.839 Y161.756 E.45219
G1 X84.659 Y161.659 E.00747
G1 X84.331 Y161.391 E.01544
G1 X84.331 Y149.728 E.42554
G1 X83.824 Y150.144 E.02395
G1 X83.824 Y160.974 E.39516
G1 X83.546 Y160.746 E.01311
G1 X83.316 Y160.466 E.01323
G1 X83.316 Y150.653 E.35804
G1 X82.808 Y151.27 E.02917
G1 X82.808 Y159.847 E.31294
G1 X82.632 Y159.633 E.01009
G1 X82.3 Y159.011 E.02575
G1 X82.3 Y152.107 E.2519
G1 X81.958 Y152.746 E.02643
G1 X81.792 Y153.29 E.02077
G1 X81.792 Y158.497 E.18997
;WIPE_START
G1 X81.792 Y156.497 E-1
;WIPE_END
G1 X85.785 Y149.992 Z.6 F21000
G1 X132.734 Y73.509 Z.6
G1 Z.2
G1 E1 F3600
;TYPE:Inner wall
G1 F3000
G1 X181.491 Y122.266 E2.51581
G1 X181.491 Y141.219 E.69151
G1 X141.219 Y181.491 E2.07798
G1 X122.266 Y181.491 E.69151
G1 X73.509 Y132.734 E2.51581
G1 X73.509 Y113.781 E.69151
G1 X113.781 Y73.509 E2.07798
G1 X132.694 Y73.509 E.69005
G1 X132.923 Y73.052 F21000
G1 F3000
G1 X181.948 Y122.077 E2.52963
G1 X181.948 Y141.408 E.70533
G1 X141.408 Y181.948 E2.0918
G1 X122.077 Y181.948 E.70533
G1 X73.052 Y132.923 E2.52963
G1 X73.052 Y113.592 E.70533
G1 X113.592 Y73.052 E2.0918
G1 X132.883 Y73.052 E.70387
G1 X133.112 Y72.595 F21000
;TYPE:Outer wall
G1 F3000
G1 X133.363 Y72.846 E.01295
G1 X182.405 Y121.888 E2.53049
G1 X182.405 Y141.598 E.71914
G1 X141.598 Y182.405 E2.10561
G1 X121.888 Y182.405 E.71914
G1 X72.595 Y133.112 E2.54345
G1 X72.595 Y113.402 E.71914
G1 X113.402 Y72.595 E2.10561
G1 X133.072 Y72.595 E.71768
;WIPE_START
G1 X133.363 Y72.846 E-.19218
G1 X134.506 Y73.989 E-.80782
;WIPE_END
G1 Z.6 F21000
G1 X132.366 Y73.692 Z.6
G1 Z.2
G1 E1 F3600
;TYPE:Bottom surface
;WIDTH:0.501359
G1 F3000
G1 X181.102 Y122.428 E2.52222
G1 X181.102 Y123.077 E.02373
G1 X131.923 Y73.898 E2.54512
G1 X131.275 Y73.898 E.02373
G1 X181.102 Y123.725 E2.57868
G1 X181.102 Y124.373 E.02373
G1 X130.627 Y73.898 E2.61223
G1 X129.978 Y73.898 E.02373
G1 X181.102 Y125.022 E2.64578
G1 X181.102 Y125.67 E.02373
G1 X129.33 Y73.898 E2.67934
G1 X128.682 Y73.898 E.02373
G1 X181.102 Y126.318 E2.71289
G1 X181.102 Y126.967 E.02373
G1 X128.033 Y73.898 E2.74644
G1 X127.385 Y73.898 E.02373
G1 X181.102 Y127.615 E2.77999
G1 X181.102 Y128.263 E.02373
G1 X126.737 Y73.898 E2.81355
G1 X126.088 Y73.898 E.02373
G1 X181.102 Y128.912 E2.8471
G1 X181.102 Y129.56 E.02373
G1 X125.44 Y73.898 E2.88065
G1 X124.792 Y73.898 E.02373
G1 X181.102 Y130.208 E2.91421
G1 X181.102 Y130.857 E.02373
G1 X124.143 Y73.898 E2.94776
G1 X123.495 Y73.898 E.02373
G1 X181.102 Y131.505 E2.98131
G1 X181.102 Y132.153 E.02373
G1 X122.847 Y73.898 E3.01486
M73 P0 R122 QuietR184 SportR112 ; NormalR7377.872s
G1 X122.198 Y73.898 E.02373
G1 X181.102 Y132.802 E3.04842
G1 X181.102 Y133.45 E.02373
G1 X121.55 Y73.898 E3.08197
G1 X120.902 Y73.898 E.02373
G1 X181.102 Y134.098 E3.11552
G1 X181.102 Y134.747 E.02373
G1 X120.253 Y73.898 E3.14907
G1 X119.605 Y73.898 E.02373
G1 X181.102 Y135.395 E3.18263
G1 X181.102 Y136.043 E.02373
G1 X118.957 Y73.898 E3.21618
G1 X118.308 Y73.898 E.02373
G1 X181.102 Y136.692 E3.24973
G1 X181.102 Y137.34 E.02373
G1 X117.66 Y73.898 E3.28329
G1 X117.012 Y73.898 E.02373
G1 X181.102 Y137.988 E3.31684
M73 P1 R122 QuietR183 SportR112 ; NormalR7361.382s
G1 X181.102 Y138.637 E.02373
G1 X116.363 Y73.898 E3.35039
G1 X115.715 Y73.898 E.02373
G1 X181.102 Y139.285 E3.38394
G1 X181.102 Y139.933 E.02373
G1 X115.067 Y73.898 E3.4175
G1 X114.419 Y73.898 E.02373
G1 X181.102 Y140.581 E3.45105
G1 X181.102 Y141.058 E.01744
G1 X181.016 Y141.144 E.00444
G1 X113.856 Y73.984 E3.47571
G1 X113.532 Y74.308 E.01678
G1 X180.692 Y141.468 E3.47571
G1 X180.368 Y141.792 E.01678
G1 X113.208 Y74.632 E3.47571
G1 X112.884 Y74.956 E.01678
G1 X180.044 Y142.116 E3.47571
G1 X179.72 Y142.441 E.01678
G1 X112.559 Y75.28 E3.47571
G1 X112.235 Y75.605 E.01678
G1 X179.395 Y142.765 E3.47571
G1 X179.071 Y143.089 E.01678
G1 X111.911 Y75.929 E3.47571
G1 X111.587 Y76.253 E.01678
G1 X178.747 Y143.413 E3.47571
G1 X178.423 Y143.737 E.01678
G1 X111.263 Y76.577 E3.47571
G1 X110.939 Y76.901 E.01678
G1 X178.099 Y144.061 E3.47571
G1 X177.775 Y144.386 E.01678
G1 X110.614 Y77.225 E3.47571
G1 X110.29 Y77.55 E.01678
G1 X177.45 Y144.71 E3.47571
G1 X177.126 Y145.034 E.01678
G1 X109.966 Y77.874 E3.47571
G1 X109.642 Y78.198 E.01678
G1 X176.802 Y145.358 E3.47571
G1 X176.478 Y145.682 E.01678
G1 X109.318 Y78.522 E3.47571
G1 X108.994 Y78.846 E.01678
G1 X176.154 Y146.006 E3.47571
G1 X175.83 Y146.331 E.01678
G1 X108.669 Y79.17 E3.47571
G1 X108.345 Y79.495 E.01678
G1 X175.505 Y146.655 E3.47571
M73 P1 R121 QuietR182 SportR112 ; NormalR7317.866s
G1 X175.181 Y146.979 E.01678
G1 X108.021 Y79.819 E3.47571
G1 X107.697 Y80.143 E.01678
G1 X174.857 Y147.303 E3.47571
G1 X174.533 Y147.627 E.01678
G1 X107.373 Y80.467 E3.47571
G1 X107.049 Y80.791 E.01678
G1 X174.209 Y147.951 E3.47571
G1 X173.885 Y148.276 E.01678
G1 X106.724 Y81.115 E3.47571
G1 X106.4 Y81.44 E.01678
G1 X173.56 Y148.6 E3.47571
G1 X173.236 Y148.924 E.01678
G1 X106.076 Y81.764 E3.47571
G1 X105.752 Y82.088 E.01678
G1 X172.912 Y149.248 E3.47571
G1 X172.588 Y149.572 E.01678
G1 X105.428 Y82.412 E3.47571
G1 X105.104 Y82.736 E.01678
G1 X172.264 Y149.896 E3.47571
G1 X171.94 Y150.221 E.01678
G1 X104.779 Y83.06 E3.47571
G1 X104.455 Y83.385 E.01678
G1 X171.615 Y150.545 E3.47571
G1 X171.291 Y150.869 E.01678
G1 X104.131 Y83.709 E3.47571
G1 X103.807 Y84.033 E.01678
G1 X170.967 Y151.193 E3.47571
G1 X170.643 Y151.517 E.01678
G1 X103.483 Y84.357 E3.47571
G1 X103.159 Y84.681 E.01678
G1 X170.319 Y151.841 E3.47571
M73 P2 R121 QuietR181 SportR111 ; NormalR7286.133s
G1 X169.995 Y152.166 E.01678
G1 X102.834 Y85.005 E3.47571
G1 X102.51 Y85.33 E.01678
G1 X169.67 Y152.49 E3.47571
G1 X169.346 Y152.814 E.01678
G1 X102.186 Y85.654 E3.47571
G1 X101.862 Y85.978 E.01678
G1 X169.022 Y153.138 E3.47571
G1 X168.698 Y153.462 E.01678
G1 X101.538 Y86.302 E3.47571
G1 X101.214 Y86.626 E.01678
G1 X168.374 Y153.786 E3.47571
G1 X168.05 Y154.111 E.01678
G1 X100.889 Y86.95 E3.47571
G1 X100.565 Y87.274 E.01678
G1 X167.726 Y154.435 E3.47571
G1 X167.401 Y154.759 E.01678
G1 X100.241 Y87.599 E3.47571
G1 X99.917 Y87.923 E.01678
G1 X167.077 Y155.083 E3.47571
G1 X166.753 Y155.407 E.01678
G1 X99.593 Y88.247 E3.47571
G1 X99.269 Y88.571 E.01678
G1 X166.429 Y155.731 E3.47571
G1 X166.105 Y156.056 E.01678
G1 X98.944 Y88.895 E3.47571
G1 X98.62 Y89.219 E.01678
G1 X165.781 Y156.38 E3.47571
M73 P2 R120 QuietR180 SportR111 ; NormalR7258.366s
G1 X165.456 Y156.704 E.01678
G1 X98.296 Y89.544 E3.47571
G1 X97.972 Y89.868 E.01678
G1 X165.132 Y157.028 E3.47571
G1 X164.808 Y157.352 E.01678
G1 X97.648 Y90.192 E3.47571
G1 X97.324 Y90.516 E.01678
G1 X164.484 Y157.676 E3.47571
G1 X164.16 Y158.001 E.01678
G1 X96.999 Y90.84 E3.47571
G1 X96.675 Y91.164 E.01678
G1 X163.836 Y158.325 E3.47571
G1 X163.511 Y158.649 E.01678
G1 X96.351 Y91.489 E3.47571
G1 X96.027 Y91.813 E.01678
G1 X163.187 Y158.973 E3.47571
G1 X162.863 Y159.297 E.01678
G1 X95.703 Y92.137 E3.47571
G1 X95.379 Y92.461 E.01678
G1 X162.539 Y159.621 E3.47571
G1 X162.215 Y159.946 E.01678
G1 X95.054 Y92.785 E3.47571
G1 X94.73 Y93.109 E.01678
G1 X161.891 Y160.27 E3.47571
G1 X161.566 Y160.594 E.01678
G1 X94.406 Y93.434 E3.47571
G1 X94.082 Y93.758 E.01678
G1 X161.242 Y160.918 E3.47571
G1 X160.918 Y161.242 E.01678
G1 X93.758 Y94.082 E3.47571
G1 X93.434 Y94.406 E.01678
G1 X160.594 Y161.566 E3.47571
G1 X160.27 Y161.891 E.01678
G1 X93.109 Y94.73 E3.47571
G1 X92.785 Y95.054 E.01678
G1 X159.946 Y162.215 E3.47571
G1 X159.621 Y162.539 E.01678
G1 X92.461 Y95.379 E3.47571
G1 X92.137 Y95.703 E.01678
G1 X159.297 Y162.863 E3.47571
G1 X158.973 Y163.187 E.01678
G1 X91.813 Y96.027 E3.47571
G1 X91.489 Y96.351 E.01678
G1 X158.649 Y163.511 E3.47571
G1 X158.325 Y163.836 E.01678
G1 X91.164 Y96.675 E3.47571
M73 P3 R120 QuietR178 SportR110 ; NormalR7212.749s
G1 X90.84 Y96.999 E.01678
G1 X158.001 Y164.16 E3.47571
G1 X157.676 Y164.484 E.01678
G1 X90.516 Y97.324 E3.47571
G1 X90.192 Y97.648 E.01678
G1 X157.352 Y164.808 E3.47571
G1 X157.028 Y165.132 E.01678
G1 X89.868 Y97.972 E3.47571
G1 X89.544 Y98.296 E.01678
G1 X156.704 Y165.456 E3.47571
G1 X156.38 Y165.781 E.01678
G1 X89.219 Y98.62 E3.47571
G1 X88.895 Y98.944 E.01678
G1 X156.056 Y166.105 E3.47571
M73 P3 R119 QuietR178 SportR110 ; NormalR7198.865s
G1 X155.731 Y166.429 E.01678
G1 X88.571 Y99.269 E3.47571
G1 X88.247 Y99.593 E.01678
G1 X155.407 Y166.753 E3.47571
G1 X155.083 Y167.077 E.01678
G1 X87.923 Y99.917 E3.47571
G1 X87.599 Y100.241 E.01678
G1 X154.759 Y167.401 E3.47571
G1 X154.435 Y167.726 E.01678
G1 X87.274 Y100.565 E3.47571
G1 X86.95 Y100.889 E.01678
G1 X154.111 Y168.05 E3.47571
G1 X153.786 Y168.374 E.01678
G1 X86.626 Y101.214 E3.47571
G1 X86.302 Y101.538 E.01678
G1 X153.462 Y168.698 E3.47571
G1 X153.138 Y169.022 E.01678
G1 X85.978 Y101.862 E3.47571
G1 X85.654 Y102.186 E.01678
G1 X152.814 Y169.346 E3.47571
G1 X152.49 Y169.671 E.01678
G1 X85.33 Y102.51 E3.47571
G1 X85.005 Y102.834 E.01678
G1 X152.166 Y169.995 E3.47571
G1 X151.841 Y170.319 E.01678
G1 X84.681 Y103.159 E3.47571
G1 X84.357 Y103.483 E.01678
G1 X151.517 Y170.643 E3.47571
G1 X151.193 Y170.967 E.01678
G1 X84.033 Y103.807 E3.47571
G1 X83.709 Y104.131 E.01678
G1 X150.869 Y171.291 E3.47571
G1 X150.545 Y171.615 E.01678
G1 X83.385 Y104.455 E3.47571
G1 X83.06 Y104.779 E.01678
G1 X150.221 Y171.94 E3.47571
G1 X149.896 Y172.264 E.01678
G1 X82.736 Y105.104 E3.47571
G1 X82.412 Y105.428 E.01678
G1 X149.572 Y172.588 E3.47571
G1 X149.248 Y172.912 E.01678
G1 X82.088 Y105.752 E3.47571
G1 X81.764 Y106.076 E.01678
G1 X148.924 Y173.236 E3.47571
G1 X148.6 Y173.56 E.01678
G1 X81.44 Y106.4 E3.47571
G1 X81.115 Y106.724 E.01678
G1 X148.276 Y173.885 E3.47571
G1 X147.951 Y174.209 E.01678
G1 X80.791 Y107.049 E3.47571
G1 X80.467 Y107.373 E.01678
G1 X147.627 Y174.533 E3.47571
G1 X147.303 Y174.857 E.01678
G1 X80.143 Y107.697 E3.47571
G1 X79.819 Y108.021 E.01678
G1 X146.979 Y175.181 E3.47571
G1 X146.655 Y175.505 E.01678
G1 X79.495 Y108.345 E3.47571
G1 X79.17 Y108.669 E.01678
G1 X146.331 Y175.83 E3.47571
M73 P3 R118 QuietR176 SportR109 ; NormalR7139.364s
G1 X146.006 Y176.154 E.01678
G1 X78.846 Y108.994 E3.47571
M73 P4 R118 QuietR176 SportR109 ; NormalR7137.381s
G1 X78.522 Y109.318 E.01678
G1 X145.682 Y176.478 E3.47571
G1 X145.358 Y176.802 E.01678
G1 X78.198 Y109.642 E3.47571
G1 X77.874 Y109.966 E.01678
G1 X145.034 Y177.126 E3.47571
G1 X144.71 Y177.45 E.01678
G1 X77.55 Y110.29 E3.47571
G1 X77.225 Y110.614 E.01678
G1 X144.386 Y177.775 E3.47571
G1 X144.061 Y178.099 E.01678
G1 X76.901 Y110.939 E3.47571
G1 X76.577 Y111.263 E.01678
G1 X143.737 Y178.423 E3.47571
G1 X143.413 Y178.747 E.01678
G1 X76.253 Y111.587 E3.47571
G1 X75.929 Y111.911 E.01678
G1 X143.089 Y179.071 E3.47571
G1 X142.765 Y179.395 E.01678
G1 X75.605 Y112.235 E3.47571
G1 X75.28 Y112.559 E.01678
G1 X142.441 Y179.72 E3.47571
G1 X142.116 Y180.044 E.01678
G1 X74.956 Y112.884 E3.47571
G1 X74.632 Y113.208 E.01678
G1 X141.792 Y180.368 E3.47571
G1 X141.468 Y180.692 E.01678
G1 X74.308 Y113.532 E3.47571
G1 X73.984 Y113.856 E.01678
G1 X141.144 Y181.016 E3.47571
G1 X141.058 Y181.102 E.00444
G1 X140.581 Y181.102 E.01744
G1 X73.898 Y114.419 E3.45105
G1 X73.898 Y115.067 E.02373
G1 X139.933 Y181.102 E3.4175
G1 X139.285 Y181.102 E.02373
G1 X73.898 Y115.715 E3.38394
G1 X73.898 Y116.363 E.02373
G1 X138.637 Y181.102 E3.35039
G1 X137.988 Y181.102 E.02373
G1 X73.898 Y117.012 E3.31684
G1 X73.898 Y117.66 E.02373
G1 X137.34 Y181.102 E3.28329
G1 X136.692 Y181.102 E.02373
G1 X73.898 Y118.308 E3.24973
G1 X73.898 Y118.957 E.02373
G1 X136.043 Y181.102 E3.21618
G1 X135.395 Y181.102 E.02373
G1 X73.898 Y119.605 E3.18263
G1 X73.898 Y120.253 E.02373
G1 X134.747 Y181.102 E3.14907
G1 X134.098 Y181.102 E.02373
G1 X73.898 Y120.902 E3.11552
G1 X73.898 Y121.55 E.02373
G1 X133.45 Y181.102 E3.08197
G1 X132.802 Y181.102 E.02373
G1 X73.898 Y122.198 E3.04842
G1 X73.898 Y122.847 E.02373
G1 X132.153 Y181.102 E3.01486
