; HEADER_BLOCK_START
; generated by AnycubicSlicerNext 1.4.1.0 on 2026-05-15 at 00:45:20
; total layer number: 49
; filament_density: 1.24
; filament_diameter: 1.75
; max_z_height: 5.96
; exclude_object: 1
; model_instances: 1
; source_info: {"models":[{"file_source":0,"mo_file_id":-1,"name":"Limit_Switch_Stand.STL_id_0_copy_0"}],"models_from":0,"plate_index":1,"slice_paras_process":1,"software_version":"AnycubicSlicerNext 1.4.1.0 20260506162140"}
; paint_info = [{"material_type":"PLA","paint_color":[105,164,255],"paint_index":0}]
; project_info = {"flush_multiplier":1.0,"flush_volumes_chan_multipliers":[1.0,1.0,1.0,1.0],"flush_volumes_matrix":[0.0],"flush_volumes_vector":[140.0,140.0]}
; flush_multiplier_calculate_by_acnext: 1
; test_mode: 0
; HEADER_BLOCK_END

; THUMBNAIL_BLOCK_START
; THUMBNAIL_BLOCK_END

; THUMBNAIL_BLOCK_START
; THUMBNAIL_BLOCK_END

; external perimeters extrusion width = 0.42mm
; perimeters extrusion width = 0.45mm
; infill extrusion width = 0.45mm
; solid infill extrusion width = 0.42mm
; top infill extrusion width = 0.80mm
; support material extrusion width = 0.42mm
; first layer extrusion width = 0.50mm

; EXECUTABLE_BLOCK_START
EXCLUDE_OBJECT_DEFINE NAME=Limit_Switch_Stand.STL_id_0_copy_0 CENTER=127.5,127.5 POLYGON=[[116.341,130.531],[120.449,120.68],[134.551,120.68],[138.659,130.531],[134.007,134.32],[120.993,134.32],[116.341,130.531]]
M73 P0 R7.3 QuietR13.4 SportR6.0 ; NormalR437.977s
M201 X20000 Y20000 Z1000 E20000
M203 X600 Y600 Z15 E600
M204 P20000 R20000 T20000
M205 X20.00 Y20.00 Z20.00 E20.00
;TYPE:Custom
G9111 bedTemp=60 extruderTemp=220
M117
M900 K0.051
; print_bed_min = 0,0
; print_bed_max = 255,255
; print_bed_size = 255,255
; first_layer_print_min = 114.404,118.68
; first_layer_print_max = 140.602,136.32
; first_layer_print_size = 26.1977,17.6403
G90
G21
M83 ; use relative distances for extrusion
; EXECUTABLE_BLOCK_HEAD
; filament start gcode
M75 ; The first extruder is ready.
M106 S0
;LAYER_CHANGE
;Z:0.2
;HEIGHT:0.2
; BEFORE_LAYER_CHANGE 0 @ 0.2mm
G1 E-1 F3600
; AFTER_LAYER_CHANGE 0 @ 0.2mm
M204 S500
SET_VELOCITY_LIMIT SQUARE_CORNER_VELOCITY=9
; start of layer_num: 1, T: 0, print_z: 0.200000
EXCLUDE_OBJECT_START NAME=Limit_Switch_Stand.STL_id_0_copy_0
G1 Z0.200 ; for object exclusion
G1 X124.258 Y131.46 F21000
G1 Z.6
G1 Z.2
G1 E1 F3600
;TYPE:Inner wall
;WIDTH:0.5
G1 F1973
G1 X124.236 Y131.461 E.0008
G1 X124.236 Y132.512 E.03832
G1 X123.914 Y132.541 E.01181
G1 X122.194 Y132.791 E.06341
G1 X121.33 Y132.964 E.03215
G1 X118.907 Y130.991 E.11398
G1 X121.713 Y130.034 E.10817
G1 X121.713 Y129.944 E.00328
G1 X133.287 Y129.944 E.42226
G1 X133.287 Y130.034 E.00328
G1 X136.093 Y130.991 E.10817
G1 X133.67 Y132.964 E.11398
G1 X132.806 Y132.791 E.03215
G1 X131.087 Y132.541 E.0634
G1 X130.764 Y132.512 E.01181
G1 X130.764 Y131.461 E.03833
G1 X128.541 Y131.352 E.0812
G1 X127.5 Y131.335 E.03801
G1 X126.425 Y131.353 E.03924
G1 X124.298 Y131.458 E.0777
G1 X124.704 Y131.896 F21000
G1 F1973
G1 X124.693 Y131.896 E.0004
G1 X124.693 Y132.929 E.03766
G1 X123.967 Y132.995 E.02658
G1 X122.271 Y133.242 E.06253
G1 X121.208 Y133.454 E.03957
G1 X117.979 Y130.825 E.15192
G1 X121.256 Y129.707 E.12633
G1 X121.256 Y121.487 E.29991
G1 X121.642 Y121.487 E.01408
G1 X121.642 Y129.487 E.29189
G1 X133.358 Y129.487 E.42746
G1 X133.358 Y121.487 E.29189
M73 P1 R7 QuietR13 SportR5 ; NormalR433.427s
G1 X133.744 Y121.487 E.01408
G1 X133.744 Y129.707 E.29991
G1 X137.021 Y130.825 E.12633
G1 X133.792 Y133.454 E.15192
G1 X132.729 Y133.242 E.03957
G1 X131.033 Y132.995 E.06253
G1 X130.307 Y132.928 E.02659
G1 X130.307 Y131.896 E.03766
G1 X128.526 Y131.809 E.06505
G1 X127.5 Y131.792 E.03746
G1 X126.44 Y131.81 E.03868
G1 X124.744 Y131.894 E.06196
G1 X125.15 Y132.331 F21000
;TYPE:Outer wall
G1 F1973
G1 X125.15 Y133.345 E.037
G1 X124.021 Y133.449 E.04136
G1 X122.349 Y133.693 E.06165
G1 X121.086 Y133.945 E.04699
G1 X117.051 Y130.658 E.18986
G1 X120.799 Y129.38 E.14448
G1 X120.799 Y121.03 E.30466
G1 X122.099 Y121.03 E.04743
G1 X122.099 Y129.03 E.29189
G1 X132.901 Y129.03 E.39411
G1 X132.901 Y121.03 E.29189
G1 X134.201 Y121.03 E.04743
G1 X134.201 Y129.38 E.30466
G1 X137.949 Y130.658 E.14448
G1 X133.914 Y133.945 E.18986
G1 X132.651 Y133.693 E.04699
G1 X130.979 Y133.449 E.06165
G1 X129.85 Y133.345 E.04136
G1 X129.85 Y132.331 E.03699
G1 X128.512 Y132.266 E.0489
G1 X127.5 Y132.249 E.03691
G1 X126.455 Y132.267 E.03813
G1 X125.19 Y132.329 E.04621
;WIPE_START
G1 F3000
G1 X125.15 Y133.345 E-.50844
G1 X124.171 Y133.436 E-.49156
;WIPE_END
G1 X131.516 Y131.359 Z.6 F21000
G1 X134.298 Y130.572 Z.6
M73 P2 R7 QuietR13 SportR5 ; NormalR429.133s
G1 Z.2
G1 E1 F3600
;TYPE:Bottom surface
;WIDTH:0.510612
G1 F1973
G1 X135.058 Y131.332 E.04013
G1 X134.694 Y131.629 E.01755
G1 X133.624 Y130.56 E.05647
G1 X132.959 Y130.333 E.02624
G1 X132.736 Y130.333 E.00833
G1 X134.329 Y131.926 E.08413
G1 X133.965 Y132.223 E.01755
G1 X132.074 Y130.333 E.09981
G1 X131.413 Y130.333 E.02469
G1 X133.6 Y132.52 E.11548
G1 X133.567 Y132.547 E.00161
G1 X132.82 Y132.401 E.02842
G1 X130.752 Y130.333 E.1092
G1 X130.09 Y130.333 E.02469
G1 X132.046 Y132.288 E.10326
G1 X131.272 Y132.176 E.0292
G1 X130.947 Y131.851 E.01716
G1 X130.354 Y131.258 F21000
G1 F1973
G1 X129.429 Y130.333 E.04885
G1 X128.767 Y130.333 E.02469
G1 X129.442 Y131.007 E.03562
G1 X128.746 Y130.973 E.026
G1 X128.106 Y130.333 E.03382
G1 X127.445 Y130.333 E.02469
G1 X128.068 Y130.955 E.03289
G1 X127.398 Y130.948 E.02498
G1 X126.783 Y130.333 E.03248
G1 X126.122 Y130.333 E.02469
G1 X126.748 Y130.959 E.03307
G1 X126.107 Y130.98 E.02393
G1 X125.46 Y130.333 E.03417
G1 X124.799 Y130.333 E.02469
G1 X125.477 Y131.011 E.03581
G1 X124.847 Y131.042 E.02356
G1 X124.138 Y130.333 E.03746
G1 X123.476 Y130.333 E.02469
G1 X124.217 Y131.073 E.03911
G1 X123.847 Y131.092 E.01381
G1 X123.847 Y131.365 E.01021
G1 X122.815 Y130.333 E.05452
G1 X122.153 Y130.333 E.02469
G1 X123.847 Y132.027 E.08944
G1 X123.847 Y132.158 E.00492
G1 X123.385 Y132.226 E.01745
G1 X121.632 Y130.472 E.09257
G1 X121.138 Y130.64 E.01945
G1 X122.807 Y132.31 E.08812
G1 X122.23 Y132.394 E.02178
G1 X120.645 Y130.809 E.08367
G1 X120.152 Y130.977 E.01945
G1 X121.849 Y132.674 E.08959
;WIPE_START
G1 F3000
G1 X120.435 Y131.26 E-1
;WIPE_END
G1 X119.873 Y130.903 Z.6 F21000
G1 Z.2
G1 E1 F3600
;TYPE:Gap infill
;WIDTH:0.255813
G1 F1973
G1 X119.84 Y130.962 E.00116
;WIDTH:0.298152
G1 X119.806 Y131.022 E.00139
;WIDTH:0.340491
G1 X119.772 Y131.081 E.00162
;WIDTH:0.389225
G1 X119.738 Y131.14 E.00189
G1 X119.771 Y131.174 E.00132
;WIDTH:0.370299
G1 X120.11 Y131.48 E.01193
;WIDTH:0.3254
G1 X120.449 Y131.786 E.01029
;WIDTH:0.280501
G1 X120.788 Y132.092 E.00866
;WIDTH:0.235602
G1 X121.126 Y132.398 E.00702
;WIDTH:0.213153
G1 X121.465 Y132.704 E.0062
G1 E-.45224 F3600
;WIPE_START
G1 F3000
G1 X121.126 Y132.398 E-.54776
;WIPE_END
G1 X128.693 Y131.401 Z.6 F21000
G1 X134.194 Y130.676 Z.6
G1 Z.2
G1 E1 F3600
;WIDTH:0.11246
G1 F1973
G1 X133.949 Y130.524 E.0016
G1 E-.65378 F3600
;WIPE_START
G1 F3000
G1 X134.194 Y130.676 E-.34622
;WIPE_END
G17
G3 Z.6 I.643 J-1.033 P1  F21000
G1 X133.949 Y130.524 Z.6
EXCLUDE_OBJECT_END NAME=Limit_Switch_Stand.STL_id_0_copy_0
; end of layer_num: 1, T: 0, print_z: 0.200000
M106 S201
;LAYER_CHANGE
;Z:0.32
;HEIGHT:0.12
; BEFORE_LAYER_CHANGE 1 @ 0.32mm
; AFTER_LAYER_CHANGE 1 @ 0.32mm
M204 S4000
SET_VELOCITY_LIMIT SQUARE_CORNER_VELOCITY=20
M104 S210 ; set nozzle temperature
M140 S60 ; set bed temperature
; start of layer_num: 2, T: 0, print_z: 0.320000
EXCLUDE_OBJECT_START NAME=Limit_Switch_Stand.STL_id_0_copy_0
SET_VELOCITY_LIMIT SQUARE_CORNER_VELOCITY=12
G1 X124.457 Y131.691 Z.32 F21000
G1 E1 F3600
SET_VELOCITY_LIMIT SQUARE_CORNER_VELOCITY=15
;TYPE:Inner wall
;WIDTH:0.45
G1 F2313
G1 X124.457 Y132.713 E.02076
G1 X123.94 Y132.761 E.01055
G1 X122.231 Y133.009 E.03508
G1 X121.271 Y133.201 E.0199
G1 X118.459 Y130.911 E.07368
G1 X121.493 Y129.876 E.06512
G1 X121.493 Y129.723 E.0031
G1 X133.507 Y129.723 E.24413
M73 P3 R7 QuietR13 SportR5 ; NormalR424.540s
G1 X133.507 Y129.876 E.0031
G1 X136.541 Y130.911 E.06512
G1 X133.729 Y133.201 E.07368
G1 X132.769 Y133.009 E.0199
G1 X131.06 Y132.761 E.03507
G1 X130.543 Y132.713 E.01055
G1 X130.544 Y131.669 E.02122
G1 X128.533 Y131.574 E.04089
G1 X127.499 Y131.557 E.02101
G1 X126.378 Y131.576 E.02278
G1 X124.477 Y131.67 E.03869
SET_VELOCITY_LIMIT SQUARE_CORNER_VELOCITY=12
G1 E-.4909 F3600
;WIPE_START
G1 F14142.679
G1 X124.457 Y132.713 E-.26544
G1 X123.94 Y132.761 E-.13214
G1 X123.506 Y132.824 E-.11152
;WIPE_END
G1 X125.29 Y132.465 Z.72 F21000
G1 Z.32
G1 E1 F3600
M204 S2000
SET_VELOCITY_LIMIT SQUARE_CORNER_VELOCITY=15
;TYPE:Outer wall
;WIDTH:0.42
G1 F2313
G1 X125.29 Y133.473 E.01904
G1 X124.038 Y133.589 E.02374
G1 X122.373 Y133.831 E.03177
G1 X121.049 Y134.095 E.02549
G1 X116.767 Y130.607 E.10427
G1 X120.659 Y129.28 E.07765
G1 X120.659 Y120.89 E.15842
G1 X122.239 Y120.89 E.02983
G1 X122.239 Y128.89 E.15106
G1 X132.761 Y128.89 E.19867
G1 X132.761 Y120.89 E.15106
G1 X134.341 Y120.89 E.02983
G1 X134.341 Y129.28 E.15842
G1 X138.233 Y130.607 E.07765
G1 X133.951 Y134.095 E.10427
G1 X132.627 Y133.831 E.02549
G1 X130.962 Y133.589 E.03177
G1 X129.71 Y133.473 E.02374
G1 X129.71 Y132.464 E.01906
G1 X128.507 Y132.407 E.02275
G1 X127.5 Y132.39 E.01901
G1 X126.406 Y132.409 E.02065
G1 X125.33 Y132.463 E.02035
M204 S4000
SET_VELOCITY_LIMIT SQUARE_CORNER_VELOCITY=12
G1 X124.891 Y132.075 F21000
SET_VELOCITY_LIMIT SQUARE_CORNER_VELOCITY=15
;TYPE:Inner wall
;WIDTH:0.45
G1 F2313
G1 X124.881 Y132.075 E.0002
G1 X124.881 Y133.1 E.02082
G1 X123.99 Y133.182 E.01818
G1 X122.303 Y133.427 E.03462
G1 X121.158 Y133.656 E.02373
G1 X117.598 Y130.756 E.09329
G1 X121.068 Y129.572 E.07451
G1 X121.068 Y121.299 E.16811
G1 X121.83 Y121.299 E.01547
G1 X121.83 Y129.299 E.16255
G1 X133.17 Y129.299 E.23042
G1 X133.17 Y121.299 E.16255
M73 P4 R7 QuietR12 SportR5 ; NormalR420.393s
G1 X133.932 Y121.299 E.01547
G1 X133.932 Y129.572 E.16811
G1 X137.402 Y130.756 E.07451
G1 X133.842 Y133.656 E.09329
G1 X132.697 Y133.427 E.02373
G1 X131.01 Y133.182 E.03462
G1 X130.119 Y133.1 E.01819
G1 X130.119 Y132.073 E.02086
G1 X128.52 Y131.998 E.03254
G1 X127.5 Y131.981 E.02073
G1 X126.393 Y132 E.0225
G1 X124.93 Y132.073 E.02975
SET_VELOCITY_LIMIT SQUARE_CORNER_VELOCITY=12
G1 X121.449 Y129.511 F21000
SET_VELOCITY_LIMIT SQUARE_CORNER_VELOCITY=20
;TYPE:Gap infill
;WIDTH:0.363012
G1 F2313
G1 X121.449 Y121.511 E.12922
SET_VELOCITY_LIMIT SQUARE_CORNER_VELOCITY=12
M73 P4 R6 QuietR12 SportR5 ; NormalR419.399s
G1 E-.52 F3600
;WIPE_START
G1 F15000
G1 X121.449 Y123.511 E-.48
;WIPE_END
G1 X128.98 Y122.267 Z.72 F21000
G1 X133.551 Y121.511 Z.72
G1 Z.32
G1 E1 F3600
SET_VELOCITY_LIMIT SQUARE_CORNER_VELOCITY=20
G1 F2313
G1 X133.551 Y129.511 E.12922
SET_VELOCITY_LIMIT SQUARE_CORNER_VELOCITY=12
G1 X132.122 Y131.311 F21000
M204 S2000
SET_VELOCITY_LIMIT SQUARE_CORNER_VELOCITY=9
;TYPE:Internal solid infill
;WIDTH:0.435099
G1 F2313
G1 X132.457 Y131.335 E.00657
;WIDTH:0.488028
G1 X132.791 Y131.359 E.00742
G1 X133.266 Y131.481 E.01086
M204 S4000
SET_VELOCITY_LIMIT SQUARE_CORNER_VELOCITY=12
G1 X131.545 Y130.921 F21000
M204 S2000
SET_VELOCITY_LIMIT SQUARE_CORNER_VELOCITY=9
;WIDTH:0.419999
G1 F2313
G1 X131.735 Y131.355 E.00894
G1 X131.741 Y131.649 E.00556
G1 X132.947 Y131.825 E.023
G1 X133.41 Y131.916 E.00892
G1 X134.109 Y131.347 E.01701
G1 X132.977 Y130.961 E.02258
G1 X132.791 Y130.921 E.00359
G1 X131.585 Y130.921 E.02277
M204 S4000
SET_VELOCITY_LIMIT SQUARE_CORNER_VELOCITY=12
G1 X127.499 Y130.485 F21000
M204 S2000
SET_VELOCITY_LIMIT SQUARE_CORNER_VELOCITY=9
;WIDTH:0.341186
G1 F2313
G1 X126.348 Y130.49 E.0174
;WIDTH:0.359438
G1 X125.277 Y130.503 E.01711
;WIDTH:0.415505
G1 X121.951 Y130.527 E.06208
G1 X121.896 Y130.587 E.00154
G1 X120.091 Y131.203 E.0356
G1 X121.485 Y132.339 E.03356
G1 X122.08 Y132.22 E.01132
G1 X123.653 Y131.99 E.02968
G1 X123.653 Y131.469 E.00972
G1 X123.797 Y131.083 E.0077
G1 X124.149 Y130.892 E.00748
;WIDTH:0.385689
G1 X125.25 Y130.851 E.01899
;WIDTH:0.346882
G1 X126.351 Y130.81 E.01695
G1 X127.499 Y130.795 E.01766
G1 X128.559 Y130.808 E.01631
;WIDTH:0.358042
G1 X129.671 Y130.848 E.01771
;WIDTH:0.415119
G1 X130.783 Y130.887 E.02075
G1 X131.203 Y131.08 E.00863
G1 X131.347 Y131.466 E.00768
G1 X131.347 Y131.99 E.00977
G1 X132.89 Y132.215 E.02907
G1 X133.515 Y132.339 E.01189
G1 X134.909 Y131.203 E.03353
G1 X133.104 Y130.587 E.03557
G1 X133.049 Y130.527 E.00153
G1 X130.792 Y130.516 E.04208
;WIDTH:0.3842
G1 X129.677 Y130.502 E.01914
;WIDTH:0.358342
G1 X127.539 Y130.485 E.03406
M204 S4000
SET_VELOCITY_LIMIT SQUARE_CORNER_VELOCITY=12
G1 X127.499 Y131.147 F21000
M204 S2000
SET_VELOCITY_LIMIT SQUARE_CORNER_VELOCITY=9
;WIDTH:0.419999
G1 F2313
G1 X128.546 Y131.164 E.01977
G1 X130.765 Y131.27 E.04194
G1 X130.905 Y131.338 E.00294
G1 X130.953 Y131.466 E.00259
G1 X130.953 Y132.34 E.01649
G1 X132.833 Y132.605 E.03586
G1 X133.62 Y132.762 E.01515
G1 X135.71 Y131.06 E.05088
G1 X133.232 Y130.214 E.04944
G1 X133.17 Y130.133 E.00192
G1 X121.83 Y130.133 E.21414
G1 X121.768 Y130.214 E.00192
G1 X119.29 Y131.06 E.04944
G1 X121.38 Y132.762 E.05088
G1 X122.157 Y132.607 E.01496
G1 X124.047 Y132.34 E.03605
G1 X124.047 Y131.469 E.01643
G1 X124.095 Y131.341 E.0026
G1 X124.235 Y131.273 E.00293
G1 X126.365 Y131.167 E.04027
G1 X127.459 Y131.148 E.02067
M204 S4000
SET_VELOCITY_LIMIT SQUARE_CORNER_VELOCITY=12
G1 X123.456 Y130.921 F21000
M204 S2000
SET_VELOCITY_LIMIT SQUARE_CORNER_VELOCITY=9
G1 F2313
G1 X122.073 Y130.921 E.02611
G1 X120.891 Y131.347 E.02372
G1 X121.59 Y131.916 E.01701
G1 X122.225 Y131.799 E.0122
G1 X123.259 Y131.649 E.01972
G1 X123.265 Y131.356 E.00554
G1 X123.44 Y130.958 E.00821
M204 S4000
SET_VELOCITY_LIMIT SQUARE_CORNER_VELOCITY=12
G1 X121.695 Y131.491 F21000
M204 S2000
SET_VELOCITY_LIMIT SQUARE_CORNER_VELOCITY=9
;WIDTH:0.444536
G1 F2313
G1 X121.952 Y131.425 E.00532
;WIDTH:0.486632
G1 X122.209 Y131.359 E.00585
;WIDTH:0.483472
G1 X122.524 Y131.336 E.00692
;WIDTH:0.459263
G1 X122.838 Y131.314 E.00655
G1 E-.90533 F3600
;WIPE_START
G1 F12000
G1 X122.524 Y131.336 E-.09467
;WIPE_END
M204 S4000
SET_VELOCITY_LIMIT SQUARE_CORNER_VELOCITY=12
G17
G3 Z.72 I.088 J1.214 P1  F21000
G1 X122.838 Y131.314 Z.72
EXCLUDE_OBJECT_END NAME=Limit_Switch_Stand.STL_id_0_copy_0
; end of layer_num: 2, T: 0, print_z: 0.320000
;LAYER_CHANGE
;Z:0.44
;HEIGHT:0.12
; BEFORE_LAYER_CHANGE 2 @ 0.44mm
; AFTER_LAYER_CHANGE 2 @ 0.44mm
; start of layer_num: 3, T: 0, print_z: 0.440000
EXCLUDE_OBJECT_START NAME=Limit_Switch_Stand.STL_id_0_copy_0
G1 X124.457 Y131.691 Z.44 F21000
M73 P5 R6 QuietR12 SportR5 ; NormalR416.064s
G1 E1 F3600
SET_VELOCITY_LIMIT SQUARE_CORNER_VELOCITY=15
;TYPE:Inner wall
;WIDTH:0.45
G1 F2332
G1 X124.457 Y132.713 E.02076
G1 X123.94 Y132.761 E.01055
G1 X122.231 Y133.009 E.03508
G1 X121.271 Y133.201 E.0199
G1 X118.459 Y130.911 E.07368
G1 X121.493 Y129.876 E.06512
G1 X121.493 Y129.723 E.0031
G1 X133.507 Y129.723 E.24413
G1 X133.507 Y129.876 E.0031
G1 X136.541 Y130.911 E.06512
G1 X133.729 Y133.201 E.07368
G1 X132.769 Y133.009 E.0199
G1 X131.06 Y132.761 E.03507
G1 X130.543 Y132.713 E.01055
G1 X130.544 Y131.668 E.02123
G1 X128.533 Y131.574 E.0409
G1 X127.499 Y131.558 E.021
G1 X126.338 Y131.578 E.02359
G1 X124.477 Y131.67 E.03788
SET_VELOCITY_LIMIT SQUARE_CORNER_VELOCITY=12
G1 E-.4909 F3600
;WIPE_START
G1 F14142.679
G1 X124.457 Y132.713 E-.26544
G1 X123.94 Y132.761 E-.13214
G1 X123.506 Y132.824 E-.11152
;WIPE_END
G1 X125.29 Y132.465 Z.84 F21000
G1 Z.44
G1 E1 F3600
M204 S2000
SET_VELOCITY_LIMIT SQUARE_CORNER_VELOCITY=15
;TYPE:Outer wall
;WIDTH:0.42
G1 F2332
G1 X125.29 Y133.473 E.01903
G1 X124.038 Y133.589 E.02374
G1 X122.373 Y133.831 E.03177
G1 X121.049 Y134.095 E.02549
G1 X116.767 Y130.607 E.10428
G1 X117.363 Y130.404 E.01189
G1 X120.109 Y129.467 E.05479
G1 X120.659 Y129.28 E.01097
G1 X120.659 Y128.698 E.01099
G1 X120.659 Y121.52 E.13554
G1 X120.659 Y120.89 E.0119
G1 X122.239 Y120.89 E.02983
G1 X122.239 Y121.52 E.0119
G1 X122.239 Y128.347 E.12891
G1 X122.239 Y128.89 E.01025
G1 X122.782 Y128.89 E.01025
G1 X132.218 Y128.89 E.17817
G1 X132.761 Y128.89 E.01025
G1 X132.761 Y128.347 E.01025
G1 X132.761 Y121.52 E.12891
G1 X132.761 Y120.89 E.0119
