; HEADER_BLOCK_START
; generated by AnycubicSlicerNext 1.4.1.0 on 2026-05-13 at 14:06:22
; total layer number: 158
; filament_density: 1.24
; filament_diameter: 1.75
; max_z_height: 19.04
; exclude_object: 1
; model_instances: 1
; source_info: {"models":[{"file_source":0,"mo_file_id":-1,"name":"pan_stand.STL_id_0_copy_0"}],"models_from":0,"plate_index":1,"slice_paras_process":1,"software_version":"AnycubicSlicerNext 1.4.1.0 20260506162140"}
; paint_info = [{"material_type":"PLA","paint_color":[105,164,255],"paint_index":0}]
; project_info = {"flush_multiplier":1.0,"flush_volumes_chan_multipliers":[1.0,1.0,1.0,1.0],"flush_volumes_matrix":[0.0],"flush_volumes_vector":[140.0,140.0]}
; flush_multiplier_calculate_by_acnext: 1
; test_mode: 0
; HEADER_BLOCK_END

; THUMBNAIL_BLOCK_START
; THUMBNAIL_BLOCK_END

; THUMBNAIL_BLOCK_START
; THUMBNAIL_BLOCK_END

; external perimeters extrusion width = 0.42mm
; perimeters extrusion width = 0.45mm
; infill extrusion width = 0.45mm
; solid infill extrusion width = 0.42mm
; top infill extrusion width = 0.42mm
; support material extrusion width = 0.42mm
; first layer extrusion width = 0.50mm

; EXECUTABLE_BLOCK_START
EXCLUDE_OBJECT_DEFINE NAME=pan_stand.STL_id_0_copy_0 CENTER=127.5,127.5 POLYGON=[[78.36,113],[176.64,113],[159.897,142],[95.1032,142],[78.36,113]]
M73 P0 R41.0 QuietR57.5 SportR38.1 ; NormalR2457.545s
M201 X20000 Y20000 Z1000 E20000
M203 X600 Y600 Z15 E600
M204 P20000 R20000 T20000
M205 X20.00 Y20.00 Z20.00 E20.00
;TYPE:Custom
G9111 bedTemp=60 extruderTemp=220
M117
M900 K0.051
; print_bed_min = 0,0
; print_bed_max = 255,255
; print_bed_size = 255,255
; first_layer_print_min = 76.3724,111
; first_layer_print_max = 178.55,156.74
; first_layer_print_size = 102.178,45.7402
G90
G21
M83 ; use relative distances for extrusion
; EXECUTABLE_BLOCK_HEAD
; filament start gcode
M75 ; The first extruder is ready.
M106 S0
;LAYER_CHANGE
;Z:0.2
;HEIGHT:0.2
; BEFORE_LAYER_CHANGE 0 @ 0.2mm
G1 E-1 F3600
; AFTER_LAYER_CHANGE 0 @ 0.2mm
M204 S500
SET_VELOCITY_LIMIT SQUARE_CORNER_VELOCITY=9
; start of layer_num: 1, T: 0, print_z: 0.200000
EXCLUDE_OBJECT_START NAME=pan_stand.STL_id_0_copy_0
G1 Z0.200 ; for object exclusion
G1 X128.067 Y124.516 F21000
G1 Z.6
G1 Z.2
G1 E1 F3600
;TYPE:Support
;WIDTH:0.5
G1 F3000
G1 X128.957 Y124.556 E.03253
G1 X130.427 Y124.892 E.05501
G1 X131.813 Y125.484 E.05501
G1 X133.072 Y126.315 E.05501
G1 X134.161 Y127.357 E.05501
G1 X135.048 Y128.577 E.05501
G1 X135.702 Y129.935 E.05501
G1 X136.103 Y131.388 E.05501
G1 X136.238 Y132.89 E.05501
G1 X136.103 Y134.392 E.05501
G1 X135.702 Y135.845 E.05501
G1 X135.362 Y136.55 E.02855
G1 X108.019 Y136.55 E.99766
G1 X108.012 Y136.539 E.00047
G1 X107.482 Y135.127 E.05501
G1 X107.213 Y133.644 E.05501
G1 X107.213 Y132.136 E.05501
G1 X107.482 Y130.653 E.05501
G1 X108.012 Y129.241 E.05501
G1 X108.785 Y127.947 E.05501
G1 X109.777 Y126.811 E.05501
G1 X110.956 Y125.871 E.05501
G1 X112.284 Y125.157 E.05501
G1 X113.718 Y124.691 E.05501
G1 X115.212 Y124.489 E.05501
G1 X116.102 Y124.529 E.03253
G1 X116.718 Y124.556 E.02248
G1 X118.188 Y124.892 E.05501
G1 X119.574 Y125.484 E.05501
G1 X120.832 Y126.315 E.05501
G1 X121.714 Y127.158 E.0445
G1 X122.017 Y126.811 E.01678
G1 X123.195 Y125.871 E.05501
G1 X124.523 Y125.157 E.05501
G1 X125.957 Y124.691 E.05501
G1 X127.451 Y124.489 E.05501
G1 X127.998 Y124.513 E.01998
G1 X135.626 Y135.347 F21000
G1 F3000
G1 X135.626 Y131.206 E.15109
G1 X135.315 Y130.08 E.04262
G1 X135.118 Y129.671 E.01658
G1 X135.118 Y136.109 E.23491
G1 X135.104 Y136.139 E.00119
G1 X134.61 Y136.139 E.01801
G1 X134.61 Y128.674 E.27234
G1 X134.102 Y127.975 E.03153
G1 X134.102 Y136.139 E.29785
G1 X133.594 Y136.139 E.01853
G1 X133.594 Y127.384 E.31943
G1 X133.087 Y126.898 E.02564
G1 X133.087 Y136.139 E.33714
G1 X132.579 Y136.139 E.01853
G1 X132.579 Y126.482 E.35232
G1 X132.071 Y126.147 E.0222
G1 X132.071 Y136.139 E.36455
G1 X131.563 Y136.139 E.01853
G1 X131.563 Y125.825 E.37631
G1 X131.055 Y125.608 E.02015
G1 X131.055 Y136.139 E.38423
G1 X130.547 Y136.139 E.01853
G1 X130.547 Y125.391 E.39216
G1 X130.299 Y125.285 E.00983
G1 X130.039 Y125.225 E.00973
G1 X130.039 Y136.139 E.39819
G1 X129.531 Y136.139 E.01853
G1 X129.531 Y125.109 E.40241
G1 X129.024 Y124.993 E.01901
G1 X129.024 Y136.139 E.40664
G1 X128.516 Y136.139 E.01853
G1 X128.516 Y124.948 E.40829
G1 X128.048 Y124.927 E.01708
G1 X128.008 Y124.925 E.00147
G1 X128.008 Y136.139 E.40912
G1 X127.5 Y136.139 E.01853
G1 X127.5 Y124.903 E.40996
G1 X127.47 Y124.901 E.00111
G1 X126.992 Y124.966 E.01758
G1 X126.992 Y136.139 E.40765
G1 X126.484 Y136.139 E.01853
G1 X126.484 Y125.035 E.40514
G1 X126.049 Y125.094 E.01603
G1 X125.976 Y125.117 E.00278
G1 X125.976 Y136.139 E.40213
G1 X125.469 Y136.139 E.01853
G1 X125.469 Y125.282 E.3961
G1 X124.961 Y125.447 E.01948
G1 X124.961 Y136.139 E.39008
G1 X124.453 Y136.139 E.01853
G1 X124.453 Y125.662 E.38225
G1 X123.945 Y125.935 E.02104
G1 X123.945 Y136.139 E.37228
G1 X123.437 Y136.139 E.01853
G1 X123.437 Y126.209 E.36231
G1 X123.423 Y126.216 E.00059
G1 X122.929 Y126.61 E.02304
G1 X122.929 Y136.139 E.34767
G1 X122.421 Y136.139 E.01853
G1 X122.421 Y127.015 E.33289
G1 X122.302 Y127.11 E.00557
G1 X121.913 Y127.555 E.02155
G1 X121.913 Y136.139 E.31319
G1 X121.406 Y136.139 E.01853
G1 X121.406 Y127.432 E.31767
G1 X120.898 Y126.947 E.02564
G1 X120.898 Y136.139 E.33538
G1 X120.39 Y136.139 E.01853
G1 X120.39 Y126.516 E.3511
G1 X119.882 Y126.18 E.0222
G1 X119.882 Y136.139 E.36333
G1 X119.374 Y136.139 E.01853
G1 X119.374 Y125.846 E.37553
G1 X118.866 Y125.629 E.02015
G1 X118.866 Y136.139 E.38345
G1 X118.358 Y136.139 E.01853
G1 X118.358 Y125.412 E.39137
G1 X118.06 Y125.285 E.01183
G1 X117.851 Y125.237 E.00785
G1 X117.851 Y136.139 E.39776
G1 X117.343 Y136.139 E.01853
G1 X117.343 Y125.121 E.40199
G1 X116.835 Y125.005 E.01901
G1 X116.835 Y136.139 E.40622
G1 X116.327 Y136.139 E.01853
G1 X116.327 Y124.951 E.40821
G1 X116.084 Y124.94 E.00888
G1 X115.819 Y124.928 E.00967
G1 X115.819 Y136.139 E.40904
G1 X115.311 Y136.139 E.01853
G1 X115.311 Y124.905 E.40987
G1 X115.23 Y124.901 E.00296
G1 X114.803 Y124.959 E.01572
G1 X114.803 Y136.139 E.4079
G1 X114.295 Y136.139 E.01853
G1 X114.295 Y125.028 E.40539
G1 X113.81 Y125.094 E.01789
G1 X113.788 Y125.101 E.00084
G1 X113.788 Y136.139 E.40272
G1 X113.28 Y136.139 E.01853
G1 X113.28 Y125.266 E.3967
G1 X112.772 Y125.431 E.01948
G1 X112.772 Y136.139 E.39068
G1 X112.264 Y136.139 E.01853
G1 X112.264 Y125.635 E.38324
G1 X111.756 Y125.908 E.02104
G1 X111.756 Y136.139 E.37327
G1 X111.248 Y136.139 E.01853
G1 X111.248 Y126.181 E.3633
G1 X111.184 Y126.216 E.00268
G1 X110.74 Y126.57 E.02069
G1 X110.74 Y136.139 E.34914
G1 X110.233 Y136.139 E.01853
G1 X110.233 Y126.975 E.33436
G1 X110.063 Y127.11 E.00792
G1 X109.725 Y127.497 E.01875
G1 X109.725 Y136.139 E.3153
G1 X109.217 Y136.139 E.01853
G1 X109.217 Y128.078 E.29409
G1 X109.12 Y128.19 E.00539
G1 X108.709 Y128.877 E.02921
G1 X108.709 Y136.139 E.26495
G1 X108.301 Y136.139 E.01487
G1 X108.201 Y135.872 E.01041
G1 X108.201 Y129.908 E.21758
G1 X107.881 Y130.763 E.03329
G1 X107.693 Y131.795 E.03827
G1 X107.693 Y135.104 E.12074
;WIPE_START
G1 X107.693 Y133.104 E-1
;WIPE_END
G1 X114.982 Y135.368 Z.6 F21000
G1 X140.047 Y143.155 Z.6
G1 Z.2
G1 E1 F3600
G1 F3000
G1 X140.448 Y144.608 E.05501
G1 X140.583 Y146.11 E.05501
G1 X140.448 Y147.612 E.05501
G1 X140.047 Y149.065 E.05501
G1 X139.393 Y150.423 E.05501
G1 X138.869 Y151.145 E.03253
G1 X138.507 Y151.643 E.02248
G1 X137.417 Y152.685 E.05501
G1 X136.159 Y153.516 E.05501
G1 X134.772 Y154.108 E.05501
G1 X133.302 Y154.444 E.05501
G1 X131.796 Y154.511 E.05501
G1 X130.302 Y154.309 E.05501
G1 X128.868 Y153.843 E.05501
G1 X127.748 Y153.24 E.04643
G1 X127.33 Y153.516 E.01825
G1 X125.944 Y154.108 E.05501
G1 X124.474 Y154.444 E.05501
G1 X122.968 Y154.511 E.05501
G1 X121.474 Y154.309 E.05501
G1 X120.04 Y153.843 E.05501
G1 X119.918 Y153.778 E.00504
G1 X119.145 Y154.108 E.03069
G1 X117.675 Y154.444 E.05501
G1 X116.169 Y154.511 E.05501
G1 X114.675 Y154.309 E.05501
G1 X113.241 Y153.843 E.05501
G1 X112.657 Y153.529 E.02419
G1 X111.301 Y154.108 E.05378
G1 X109.831 Y154.444 E.05501
G1 X108.325 Y154.511 E.05501
G1 X106.831 Y154.309 E.05501
G1 X105.397 Y153.843 E.05501
G1 X104.07 Y153.129 E.05501
G1 X102.891 Y152.189 E.05501
G1 X101.899 Y151.053 E.05501
G1 X101.126 Y149.759 E.05501
G1 X100.596 Y148.347 E.05501
G1 X100.327 Y146.864 E.05501
G1 X100.327 Y145.356 E.05501
G1 X100.596 Y143.873 E.05501
G1 X101.126 Y142.461 E.05501
G1 X101.132 Y142.45 E.00047
G1 X139.708 Y142.45 E1.40746
G1 X140.017 Y143.093 E.02605
G1 X139.689 Y149.335 F21000
G1 F3000
G1 X139.689 Y143.403 E.21643
G1 X139.66 Y143.3 E.0039
G1 X139.449 Y142.861 E.01777
G1 X139.181 Y142.861 E.00978
G1 X139.181 Y149.915 E.25738
G1 X139.038 Y150.212 E.01199
G1 X138.673 Y150.714 E.02267
G1 X138.673 Y142.861 E.28652
G1 X138.165 Y142.861 E.01853
G1 X138.165 Y151.401 E.31156
G1 X137.657 Y151.886 E.02564
G1 X137.657 Y142.861 E.32928
G1 X137.149 Y142.861 E.01853
G1 X137.149 Y152.369 E.34688
M73 P1 R40 QuietR56 SportR37 ; NormalR2432.929s
G1 X136.642 Y152.704 E.0222
G1 X136.642 Y142.861 E.35912
G1 X136.134 Y142.861 E.01853
G1 X136.134 Y153.039 E.37135
G1 X135.963 Y153.152 E.00747
G1 X135.626 Y153.296 E.01338
G1 X135.626 Y142.861 E.38072
G1 X135.118 Y142.861 E.01853
G1 X135.118 Y153.513 E.38864
G1 X134.645 Y153.715 E.01878
G1 X134.61 Y153.723 E.00129
G1 X134.61 Y142.861 E.39631
G1 X134.102 Y142.861 E.01853
G1 X134.102 Y153.839 E.40054
G1 X133.594 Y153.955 E.01901
G1 X133.594 Y142.861 E.40477
G1 X133.087 Y142.861 E.01853
G1 X133.087 Y154.042 E.40792
G1 X132.579 Y154.064 E.01855
G1 X132.579 Y142.861 E.40875
G1 X132.071 Y142.861 E.01853
G1 X132.071 Y154.087 E.40959
G1 X131.815 Y154.099 E.00935
G1 X131.563 Y154.065 E.00927
G1 X131.563 Y142.861 E.40876
G1 X131.055 Y142.861 E.01853
G1 X131.055 Y153.996 E.40625
G1 X130.547 Y153.927 E.0187
G1 X130.547 Y142.861 E.40374
G1 X130.039 Y142.861 E.01853
G1 X130.039 Y153.791 E.39878
G1 X129.531 Y153.626 E.01948
G1 X129.531 Y142.861 E.39276
G1 X129.024 Y142.861 E.01853
G1 X129.024 Y153.459 E.38668
G1 X128.516 Y153.186 E.02104
G1 X128.516 Y142.861 E.37671
G1 X128.008 Y142.861 E.01853
G1 X128.008 Y152.913 E.36674
G1 X127.726 Y152.761 E.01167
G1 X127.5 Y152.911 E.00989
G1 X127.5 Y142.861 E.36666
G1 X126.992 Y142.861 E.01853
G1 X126.992 Y153.213 E.37768
G1 X126.484 Y153.43 E.02015
G1 X126.484 Y142.861 E.3856
G1 X125.976 Y142.861 E.01853
G1 X125.976 Y153.647 E.39352
G1 X125.816 Y153.715 E.00635
G1 X125.469 Y153.795 E.01302
G1 X125.469 Y142.861 E.39892
G1 X124.961 Y142.861 E.01853
G1 X124.961 Y153.911 E.40314
G1 X124.453 Y154.027 E.01901
G1 X124.453 Y142.861 E.40737
G1 X123.945 Y142.861 E.01853
G1 X123.945 Y154.056 E.40843
G1 X123.437 Y154.078 E.01855
G1 X123.437 Y142.861 E.40927
G1 X122.929 Y142.861 E.01853
G1 X122.929 Y154.091 E.40972
G1 X122.421 Y154.022 E.0187
G1 X122.421 Y142.861 E.40721
G1 X121.913 Y142.861 E.01853
G1 X121.913 Y153.953 E.4047
G1 X121.566 Y153.906 E.0128
G1 X121.406 Y153.854 E.00615
G1 X121.406 Y142.861 E.40109
G1 X120.898 Y142.861 E.01853
G1 X120.898 Y153.689 E.39506
G1 X120.39 Y153.524 E.01948
G1 X120.39 Y142.861 E.38904
G1 X119.882 Y142.861 E.01853
G1 X119.882 Y153.346 E.38253
G1 X119.374 Y153.563 E.02015
G1 X119.374 Y142.861 E.39045
G1 X118.866 Y142.861 E.01853
G1 X118.866 Y153.75 E.39728
G1 X118.358 Y153.866 E.01901
G1 X118.358 Y142.861 E.4015
G1 X117.851 Y142.861 E.01853
G1 X117.851 Y153.982 E.40573
G1 X117.619 Y154.034 E.00865
G1 X117.343 Y154.047 E.01011
G1 X117.343 Y142.861 E.40811
G1 X116.835 Y142.861 E.01853
G1 X116.835 Y154.07 E.40894
G1 X116.327 Y154.092 E.01855
G1 X116.327 Y142.861 E.40978
G1 X115.819 Y142.861 E.01853
G1 X115.819 Y154.049 E.40819
G1 X115.311 Y153.98 E.0187
G1 X115.311 Y142.861 E.40568
G1 X114.803 Y142.861 E.01853
G1 X114.803 Y153.911 E.40317
G1 X114.767 Y153.906 E.00136
G1 X114.295 Y153.753 E.01807
G1 X114.295 Y142.861 E.3974
G1 X113.788 Y142.861 E.01853
G1 X113.788 Y153.588 E.39138
G1 X113.403 Y153.463 E.01475
G1 X113.28 Y153.397 E.00511
G1 X113.28 Y142.861 E.3844
G1 X112.772 Y142.861 E.01853
G1 X112.772 Y153.124 E.37443
G1 X112.677 Y153.073 E.00392
G1 X112.264 Y153.249 E.0164
G1 X112.264 Y142.861 E.37902
G1 X111.756 Y142.861 E.01853
G1 X111.756 Y153.466 E.38694
G1 X111.248 Y153.683 E.02015
G1 X111.248 Y142.861 E.39486
G1 X110.74 Y142.861 E.01853
G1 X110.74 Y153.814 E.39963
G1 X110.233 Y153.93 E.01901
G1 X110.233 Y142.861 E.40386
G1 X109.725 Y142.861 E.01853
G1 X109.725 Y154.037 E.40774
G1 X109.217 Y154.059 E.01855
G1 X109.217 Y142.861 E.40858
G1 X108.709 Y142.861 E.01853
G1 X108.709 Y154.082 E.40941
G1 X108.344 Y154.099 E.01334
G1 X108.201 Y154.079 E.00526
G1 X108.201 Y142.861 E.4093
G1 X107.693 Y142.861 E.01853
G1 X107.693 Y154.011 E.40679
G1 X107.185 Y153.942 E.0187
G1 X107.185 Y142.861 E.40428
G1 X106.677 Y142.861 E.01853
G1 X106.677 Y153.826 E.40007
G1 X106.17 Y153.661 E.01948
G1 X106.17 Y142.861 E.39405
G1 X105.662 Y142.861 E.01853
G1 X105.662 Y153.496 E.38803
G1 X105.56 Y153.463 E.00392
G1 X105.154 Y153.245 E.01681
G1 X105.154 Y142.861 E.37885
G1 X104.646 Y142.861 E.01853
G1 X104.646 Y152.972 E.36888
G1 X104.297 Y152.784 E.01445
G1 X104.138 Y152.657 E.00742
G1 X104.138 Y142.861 E.3574
G1 X103.63 Y142.861 E.01853
G1 X103.63 Y152.252 E.34263
G1 X103.176 Y151.89 E.02118
G1 X103.122 Y151.828 E.00299
G1 X103.122 Y142.861 E.32717
G1 X102.615 Y142.861 E.01853
G1 X102.615 Y151.247 E.30596
G1 X102.233 Y150.81 E.02115
G1 X102.107 Y150.599 E.00899
G1 X102.107 Y142.861 E.28231
G1 X101.599 Y142.861 E.01853
G1 X101.599 Y149.749 E.25129
G1 X101.498 Y149.58 E.00719
G1 X101.091 Y148.496 E.04224
G1 X101.091 Y143.139 E.19545
;WIPE_START
G1 X101.091 Y145.139 E-1
;WIPE_END
G1 X108.665 Y144.199 Z.6 F21000
G1 X157.591 Y138.13 Z.6
G1 Z.2
G1 E1 F3600
;TYPE:Inner wall
G1 F3000
G1 X171.37 Y114.264 E1.00549
G1 X174.45 Y114.264 E.1124
G1 X159.167 Y140.736 E1.11527
M73 P2 R40 QuietR56 SportR37 ; NormalR2408.268s
G1 X95.833 Y140.736 E2.31081
G1 X80.55 Y114.264 E1.11527
G1 X83.63 Y114.264 E.1124
G1 X83.757 Y114.485 E.00929
G1 X97.487 Y138.264 E1.00184
G1 X157.513 Y138.264 E2.19015
G1 X157.571 Y138.165 E.00418
G1 X157.288 Y137.74 F21000
G1 F3000
G1 X171.106 Y113.807 E1.00831
G1 X175.242 Y113.807 E.15091
G1 X159.431 Y141.193 E1.15378
G1 X95.569 Y141.193 E2.33006
G1 X79.758 Y113.807 E1.15378
G1 X83.894 Y113.807 E.15091
G1 X84.153 Y114.256 E.01892
G1 X97.75 Y137.807 E.99221
G1 X157.25 Y137.807 E2.17089
M73 P2 R39 QuietR55 SportR37 ; NormalR2398.749s
G1 X157.268 Y137.775 E.00136
G1 X156.986 Y137.35 F21000
;TYPE:Outer wall
G1 F3000
G1 X170.842 Y113.35 E1.01113
G1 X176.034 Y113.35 E.18943
G1 X159.695 Y141.65 E1.19229
G1 X95.305 Y141.65 E2.34932
G1 X78.966 Y113.35 E1.19229
G1 X84.158 Y113.35 E.18942
G1 X84.549 Y114.028 E.02855
G1 X98.014 Y137.35 E.98258
G1 X156.946 Y137.35 E2.15017
;WIPE_START
G1 X157.948 Y135.619 E-1
;WIPE_END
G1 X162.414 Y129.43 Z.6 F21000
G1 X173.223 Y114.447 Z.6
G1 Z.2
G1 E1 F3600
;TYPE:Bottom surface
;WIDTH:0.501439
G1 F3000
G1 X173.65 Y114.874 E.02208
G1 X173.413 Y115.285 E.01737
G1 X172.781 Y114.653 E.03271
G1 X172.132 Y114.653 E.02373
G1 X173.175 Y115.696 E.05399
G1 X172.938 Y116.107 E.01737
G1 X171.554 Y114.723 E.07165
G1 X171.316 Y115.134 E.01737
G1 X172.701 Y116.518 E.07165
G1 X172.463 Y116.929 E.01737
G1 X171.079 Y115.545 E.07165
G1 X170.842 Y115.956 E.01737
G1 X172.226 Y117.34 E.07165
G1 X171.989 Y117.751 E.01737
G1 X170.604 Y116.367 E.07165
G1 X170.367 Y116.778 E.01737
G1 X171.751 Y118.162 E.07165
G1 X171.514 Y118.573 E.01737
G1 X170.13 Y117.189 E.07165
G1 X169.892 Y117.6 E.01737
G1 X171.277 Y118.984 E.07165
G1 X171.039 Y119.396 E.01737
G1 X169.655 Y118.011 E.07165
G1 X169.418 Y118.423 E.01737
G1 X170.802 Y119.807 E.07165
G1 X170.564 Y120.218 E.01737
G1 X169.18 Y118.834 E.07165
G1 X168.943 Y119.245 E.01737
G1 X170.327 Y120.629 E.07165
G1 X170.09 Y121.04 E.01737
G1 X168.706 Y119.656 E.07165
G1 X168.468 Y120.067 E.01737
G1 X169.852 Y121.451 E.07165
G1 X169.615 Y121.862 E.01737
G1 X168.231 Y120.478 E.07165
G1 X167.994 Y120.889 E.01737
G1 X169.378 Y122.273 E.07165
G1 X169.14 Y122.684 E.01737
G1 X167.756 Y121.3 E.07165
G1 X167.519 Y121.711 E.01737
