; HEADER_BLOCK_START
; generated by AnycubicSlicerNext 1.4.1.0 on 2026-05-13 at 15:59:56
; total layer number: 83
; filament_density: 1.24
; filament_diameter: 1.75
; max_z_height: 10.04
; exclude_object: 1
; model_instances: 1
; source_info: {"models":[{"file_source":0,"mo_file_id":-1,"name":"tilt_stand.STL_id_0_copy_0"}],"models_from":0,"plate_index":1,"slice_paras_process":1,"software_version":"AnycubicSlicerNext 1.4.1.0 20260506162140"}
; paint_info = [{"material_type":"PLA","paint_color":[105,164,255],"paint_index":0}]
; project_info = {"flush_multiplier":1.0,"flush_volumes_chan_multipliers":[1.0,1.0,1.0,1.0],"flush_volumes_matrix":[0.0],"flush_volumes_vector":[140.0,140.0]}
; flush_multiplier_calculate_by_acnext: 1
; test_mode: 0
; HEADER_BLOCK_END

; THUMBNAIL_BLOCK_START
; THUMBNAIL_BLOCK_END

; THUMBNAIL_BLOCK_START
; THUMBNAIL_BLOCK_END

; external perimeters extrusion width = 0.42mm
; perimeters extrusion width = 0.45mm
; infill extrusion width = 0.45mm
; solid infill extrusion width = 0.42mm
; top infill extrusion width = 0.42mm
; support material extrusion width = 0.42mm
; first layer extrusion width = 0.50mm

; EXECUTABLE_BLOCK_START
EXCLUDE_OBJECT_DEFINE NAME=tilt_stand.STL_id_0_copy_0 CENTER=127.5,127.5 POLYGON=[[100.5,109.5],[105.5,104.5],[149.5,104.5],[154.5,109.5],[154.5,150.5],[100.5,150.5],[100.5,109.5]]
M73 P0 R39.0 QuietR49.8 SportR37.1 ; NormalR2342.587s
M201 X20000 Y20000 Z1000 E20000
M203 X600 Y600 Z15 E600
M204 P20000 R20000 T20000
M205 X20.00 Y20.00 Z20.00 E20.00
;TYPE:Custom
G9111 bedTemp=60 extruderTemp=220
M117
M900 K0.051
; print_bed_min = 0,0
; print_bed_max = 255,255
; print_bed_size = 255,255
; first_layer_print_min = 98.5,94.4953
; first_layer_print_max = 166.603,152.5
; first_layer_print_size = 68.1029,58.0047
G90
G21
M83 ; use relative distances for extrusion
; EXECUTABLE_BLOCK_HEAD
; filament start gcode
M75 ; The first extruder is ready.
M106 S0
;LAYER_CHANGE
;Z:0.2
;HEIGHT:0.2
; BEFORE_LAYER_CHANGE 0 @ 0.2mm
G1 E-1 F3600
; AFTER_LAYER_CHANGE 0 @ 0.2mm
M204 S500
SET_VELOCITY_LIMIT SQUARE_CORNER_VELOCITY=9
; start of layer_num: 1, T: 0, print_z: 0.200000
EXCLUDE_OBJECT_START NAME=tilt_stand.STL_id_0_copy_0
G1 Z0.200 ; for object exclusion
G1 X111.556 Y96.928 F21000
G1 Z.6
G1 Z.2
G1 E1 F3600
;TYPE:Support
;WIDTH:0.5
G1 F3000
G1 X112.434 Y97.128 E.03284
G1 X113.018 Y97.465 E.02463
G1 X114.536 Y96.87 E.05949
G1 X116.343 Y96.734 E.06613
G1 X117.23 Y96.936 E.03317
G1 X118.112 Y97.137 E.033
G1 X118.955 Y97.622 E.03549
G1 X119.067 Y97.533 E.00525
G1 X120.755 Y96.871 E.06614
G1 X122.562 Y96.736 E.06613
G1 X123.446 Y96.937 E.03308
G1 X124.33 Y97.139 E.03307
G1 X125.9 Y98.045 E.06614
G1 X127.134 Y99.373 E.06615
G1 X127.922 Y101.005 E.06614
G1 X128.06 Y101.911 E.03344
G1 X128.194 Y102.8 E.0328
G1 X128.007 Y104.05 E.04611
G1 X105.41 Y104.05 E.82446
G1 X105.245 Y104.119 E.00653
G1 X104.539 Y104.825 E.03645
G1 X104.192 Y103.699 E.04298
G1 X104.193 Y101.885 E.06619
G1 X104.728 Y100.152 E.06618
G1 X105.235 Y99.409 E.03281
G1 X105.75 Y98.653 E.03338
G1 X107.168 Y97.523 E.06617
G1 X108.857 Y96.86 E.06617
G1 X110.665 Y96.725 E.06617
G1 X111.489 Y96.913 E.03084
G1 X127.5 Y103.844 F21000
G1 F3000
G1 X127.5 Y101.078 E.10095
M73 P0 R38 QuietR49 SportR37 ; NormalR2339.417s
G1 X126.992 Y100.025 E.04263
G1 X126.992 Y103.639 E.13184
G1 X126.484 Y103.639 E.01853
G1 X126.484 Y99.278 E.15911
G1 X125.976 Y98.731 E.02722
G1 X125.976 Y103.639 E.17905
G1 X125.469 Y103.639 E.01853
G1 X125.469 Y98.271 E.19586
G1 X124.961 Y97.978 E.02139
G1 X124.961 Y103.639 E.20654
G1 X124.453 Y103.639 E.01853
G1 X124.453 Y97.685 E.21723
G1 X124.178 Y97.526 E.01158
G1 X123.945 Y97.473 E.00872
G1 X123.945 Y103.639 E.22495
G1 X123.437 Y103.639 E.01853
G1 X123.437 Y97.357 E.22918
G1 X123.355 Y97.338 E.00308
G1 X122.929 Y97.241 E.01592
G1 X122.929 Y103.639 E.23341
G1 X122.421 Y103.639 E.01853
G1 X122.421 Y97.159 E.23642
G1 X121.913 Y97.197 E.01858
G1 X121.913 Y103.639 E.23503
G1 X121.406 Y103.639 E.01853
G1 X121.406 Y97.235 E.23365
G1 X120.898 Y97.273 E.01858
G1 X120.898 Y103.639 E.23226
G1 X120.39 Y103.639 E.01853
G1 X120.39 Y97.456 E.22558
G1 X119.882 Y97.655 E.0199
G1 X119.882 Y103.639 E.21832
G1 X119.374 Y103.639 E.01853
G1 X119.374 Y97.854 E.21105
G1 X119.275 Y97.893 E.00389
G1 X118.992 Y98.119 E.01321
G1 X118.866 Y98.046 E.00529
G1 X118.866 Y103.639 E.20404
G1 X118.358 Y103.639 E.01853
G1 X118.358 Y97.754 E.21472
G1 X117.96 Y97.524 E.01678
G1 X117.851 Y97.499 E.0041
G1 X117.851 Y103.639 E.22401
G1 X117.343 Y103.639 E.01853
G1 X117.343 Y97.383 E.22824
G1 X117.138 Y97.337 E.00764
G1 X116.835 Y97.268 E.01136
G1 X116.835 Y103.639 E.23246
G1 X116.327 Y103.639 E.01853
G1 X116.327 Y97.152 E.23667
G1 X116.312 Y97.149 E.00054
G1 X115.819 Y97.186 E.01805
G1 X115.819 Y103.639 E.23544
G1 X115.311 Y103.639 E.01853
G1 X115.311 Y97.224 E.23405
G1 X114.803 Y97.262 E.01858
G1 X114.803 Y103.639 E.23265
G1 X114.295 Y103.639 E.01853
G1 X114.295 Y97.406 E.2274
G1 X113.788 Y97.605 E.01991
G1 X113.788 Y103.639 E.22013
G1 X113.28 Y103.639 E.01853
G1 X113.28 Y97.805 E.21286
G1 X112.984 Y97.921 E.01158
G1 X112.772 Y97.798 E.00895
G1 X112.772 Y103.639 E.2131
G1 X112.264 Y103.639 E.01853
G1 X112.264 Y97.511 E.22357
G1 X111.756 Y97.395 E.01901
G1 X111.756 Y103.639 E.22779
G1 X111.248 Y103.639 E.01853
G1 X111.248 Y97.279 E.23202
G1 X110.74 Y97.164 E.01901
G1 X110.74 Y103.639 E.23625
G1 X110.233 Y103.639 E.01853
G1 X110.233 Y97.17 E.23603
G1 X109.725 Y97.208 E.01858
G1 X109.725 Y103.639 E.23464
G1 X109.217 Y103.639 E.01853
G1 X109.217 Y97.246 E.23325
G1 X108.949 Y97.266 E.00979
G1 X108.709 Y97.36 E.00941
G1 X108.709 Y103.639 E.22908
G1 X108.201 Y103.639 E.01853
G1 X108.201 Y97.559 E.22181
G1 X107.693 Y97.759 E.01991
G1 X107.693 Y103.639 E.21454
G1 X107.185 Y103.639 E.01853
G1 X107.185 Y98.035 E.20445
G1 X106.677 Y98.44 E.0237
G1 X106.677 Y103.639 E.18968
G1 X106.17 Y103.639 E.01853
G1 X106.17 Y98.845 E.17491
G1 X106.055 Y98.936 E.00534
G1 X105.662 Y99.513 E.02546
G1 X105.662 Y103.639 E.15054
G1 X105.329 Y103.639 E.01215
G1 X105.154 Y103.711 E.0069
G1 X105.154 Y100.257 E.12602
G1 X105.103 Y100.332 E.00333
G1 X104.646 Y101.811 E.05645
G1 X104.646 Y104.427 E.09545
;WIPE_START
G1 X104.646 Y102.427 E-1
;WIPE_END
G1 X106.37 Y109.862 Z.6 F21000
G1 X112.021 Y134.229 Z.6
G1 Z.2
G1 E1 F3600
G1 F3000
G1 X112.889 Y134.328 E.03186
G1 X114.392 Y134.854 E.05813
G1 X115.741 Y135.702 E.05813
G1 X116.868 Y136.829 E.05813
G1 X117.715 Y138.178 E.05813
G1 X118.002 Y138.997 E.03167
G1 X118.242 Y139.682 E.02647
G1 X118.421 Y141.265 E.05813
G1 X118.243 Y142.849 E.05814
G1 X117.718 Y144.353 E.05814
G1 X116.871 Y145.703 E.05814
G1 X116.247 Y146.327 E.03219
G1 X115.744 Y146.831 E.026
G1 X114.395 Y147.68 E.05814
G1 X112.89 Y148.208 E.05818
G1 X111.306 Y148.387 E.05819
G1 X109.721 Y148.209 E.05819
G1 X108.95 Y147.94 E.02978
G1 X108.95 Y134.596 E.48689
G1 X109.721 Y134.326 E.02981
G1 X111.305 Y134.149 E.05813
G1 X111.953 Y134.222 E.02381
G1 X117.851 Y143.349 F21000
G1 F3000
G1 X117.851 Y139.881 E.12655
G1 X117.839 Y139.774 E.00391
G1 X117.614 Y139.133 E.02478
G1 X117.343 Y138.358 E.02996
G1 X117.343 Y144.177 E.2123
G1 X116.835 Y144.986 E.03486
G1 X116.835 Y137.55 E.27133
G1 X116.544 Y137.087 E.01993
G1 X116.327 Y136.87 E.01121
G1 X116.327 Y145.665 E.32091
G1 X115.956 Y146.036 E.01913
G1 X115.819 Y146.174 E.00709
G1 X115.819 Y136.362 E.358
G1 X115.483 Y136.026 E.01733
G1 X115.311 Y135.918 E.00741
G1 X115.311 Y146.617 E.39038
G1 X114.803 Y146.937 E.02189
G1 X114.803 Y135.599 E.41369
G1 X114.295 Y135.279 E.02189
G1 X114.295 Y147.257 E.437
G1 X114.215 Y147.307 E.00347
G1 X113.788 Y147.457 E.01652
G1 X113.788 Y135.078 E.45165
G1 X113.28 Y134.901 E.01963
G1 X113.28 Y147.635 E.46464
G1 X112.798 Y147.804 E.01863
G1 X112.772 Y147.807 E.00095
G1 X112.772 Y134.728 E.47719
G1 X112.264 Y134.671 E.01865
G1 X112.264 Y147.865 E.48138
G1 X111.756 Y147.922 E.01865
G1 X111.756 Y134.614 E.48558
G1 X111.305 Y134.563 E.01658
G1 X111.248 Y134.569 E.00207
G1 X111.248 Y147.967 E.48884
G1 X110.74 Y147.91 E.01865
G1 X110.74 Y134.626 E.48468
G1 X110.233 Y134.683 E.01865
G1 X110.233 Y147.853 E.48053
G1 X109.813 Y147.806 E.01542
G1 X109.725 Y147.775 E.0034
G1 X109.725 Y134.543 E.48279
;WIPE_START
G1 X109.725 Y136.543 E-1
;WIPE_END
G1 X115.325 Y131.358 Z.6 F21000
G1 X134.382 Y113.716 Z.6
G1 Z.2
G1 E1 F3600
G1 F3000
G1 X134.558 Y115.295 E.05798
G1 X134.379 Y116.873 E.05796
G1 X133.852 Y118.372 E.05794
G1 X133.006 Y119.715 E.05792
G1 X131.883 Y120.835 E.05786
G1 X131.275 Y121.216 E.02616
G1 X130.537 Y121.678 E.03179
G1 X129.04 Y122.2 E.05785
G1 X127.464 Y122.376 E.05786
G1 X125.889 Y122.197 E.05784
G1 X124.393 Y121.673 E.05784
G1 X123.051 Y120.829 E.05783
G1 X121.93 Y119.709 E.05782
G1 X121.482 Y118.996 E.03071
G1 X121.086 Y118.366 E.02715
G1 X120.562 Y116.871 E.05782
G1 X120.382 Y115.296 E.05784
G1 X120.558 Y113.72 E.05786
G1 X120.826 Y112.95 E.02974
G1 X134.115 Y112.95 E.48484
G1 X134.359 Y113.651 E.02709
G1 X134.102 Y117.04 F21000
G1 F3000
G1 X134.102 Y114.917 E.07747
G1 X133.978 Y113.807 E.04072
G1 X133.823 Y113.361 E.01724
G1 X133.594 Y113.361 E.00832
G1 X133.594 Y117.865 E.16431
G1 X133.48 Y118.192 E.01264
G1 X133.087 Y118.815 E.02689
G1 X133.087 Y113.361 E.19899
G1 X132.579 Y113.361 E.01853
G1 X132.579 Y119.56 E.22615
G1 X132.071 Y120.066 E.02617
G1 X132.071 Y113.361 E.24463
G1 X131.563 Y113.361 E.01853
G1 X131.563 Y120.55 E.26227
M73 P1 R38 QuietR49 SportR36 ; NormalR2319.040s
G1 X131.057 Y120.867 E.02179
G1 X131.055 Y120.868 E.00008
G1 X131.055 Y113.361 E.27389
G1 X130.547 Y113.361 E.01853
G1 X130.547 Y121.186 E.28549
G1 X130.358 Y121.305 E.00815
G1 X130.039 Y121.416 E.01231
G1 X130.039 Y113.361 E.29387
G1 X129.531 Y113.361 E.01853
G1 X129.531 Y121.593 E.30033
G1 X129.024 Y121.77 E.01962
G1 X129.024 Y113.361 E.30679
G1 X128.516 Y113.361 E.01853
G1 X128.516 Y121.844 E.30951
G1 X128.008 Y121.901 E.01865
G1 X128.008 Y113.361 E.31158
G1 X127.5 Y113.361 E.01853
G1 X127.5 Y121.958 E.31365
G1 X127.464 Y121.962 E.00131
G1 X126.992 Y121.908 E.01734
G1 X126.992 Y113.361 E.31184
G1 X126.484 Y113.361 E.01853
G1 X126.484 Y121.851 E.30974
G1 X125.981 Y121.794 E.01848
G1 X125.976 Y121.792 E.00018
G1 X125.976 Y113.361 E.3076
G1 X125.469 Y113.361 E.01853
G1 X125.469 Y121.614 E.3011
G1 X124.961 Y121.436 E.01963
G1 X124.961 Y113.361 E.29461
G1 X124.453 Y113.361 E.01853
G1 X124.453 Y121.225 E.2869
G1 X123.945 Y120.905 E.02189
G1 X123.945 Y113.361 E.27525
G1 X123.437 Y113.361 E.01853
G1 X123.437 Y120.586 E.2636
G1 X123.309 Y120.506 E.00552
G1 X122.929 Y120.126 E.01959
G1 X122.929 Y113.361 E.24681
G1 X122.421 Y113.361 E.01853
G1 X122.421 Y119.618 E.22829
G1 X122.254 Y119.451 E.00865
G1 X121.913 Y118.91 E.02332
G1 X121.913 Y113.361 E.20244
G1 X121.406 Y113.361 E.01853
G1 X121.406 Y118.035 E.17052
G1 X120.965 Y116.779 E.04858
G1 X120.898 Y116.187 E.02173
G1 X120.898 Y113.37 E.10277
;WIPE_START
G1 X120.898 Y115.37 E-1
;WIPE_END
G1 X128.092 Y117.919 Z.6 F21000
G1 X146.05 Y124.281 Z.6
G1 Z.2
G1 E1 F3600
G1 F3000
G1 X146.05 Y145.966 E.7912
G1 X145.252 Y146.147 E.02987
G1 X143.442 Y146.01 E.06621
G1 X141.754 Y145.346 E.06619
G1 X140.337 Y144.214 E.06616
G1 X139.829 Y143.469 E.03292
G1 X139.316 Y142.715 E.03328
G1 X138.783 Y140.983 E.06614
G1 X138.783 Y139.17 E.06615
G1 X139.164 Y137.933 E.0472
G1 X138.796 Y137.464 E.02178
G1 X138.343 Y136.475 E.03966
G1 X138.092 Y135.665 E.03095
G1 X137.958 Y134.736 E.03427
G1 X137.958 Y133.888 E.03092
G1 X138.092 Y132.96 E.03422
G1 X138.345 Y132.148 E.03103
G1 X138.8 Y131.156 E.0398
G1 X138.775 Y131.074 E.00314
G1 X138.775 Y129.26 E.06618
G1 X139.309 Y127.527 E.06617
G1 X139.824 Y126.771 E.03338
G1 X140.331 Y126.028 E.03281
G1 X141.749 Y124.897 E.06618
G1 X143.437 Y124.234 E.06619
G1 X145.246 Y124.098 E.06619
G1 X145.983 Y124.266 E.02758
G1 X145.275 Y145.931 F21000
G1 F3000
G1 X145.275 Y124.526 E.78098
G1 X145.215 Y124.512 E.00225
G1 X144.767 Y124.546 E.01638
G1 X144.767 Y145.698 E.77175
G1 X144.26 Y145.66 E.01858
G1 X144.26 Y124.584 E.76895
G1 X143.752 Y124.623 E.01858
G1 X143.752 Y145.621 E.76615
G1 X143.535 Y145.605 E.00792
G1 X143.244 Y145.49 E.01142
G1 X143.244 Y124.752 E.75667
G1 X142.736 Y124.951 E.01991
G1 X142.736 Y145.29 E.7421
G1 X142.228 Y145.09 E.01991
G1 X142.228 Y125.151 E.72753
G1 X141.957 Y125.257 E.01064
G1 X141.72 Y125.446 E.01104
G1 X141.72 Y144.793 E.70589
G1 X141.212 Y144.387 E.02371
G1 X141.212 Y125.851 E.6763
G1 X140.705 Y126.256 E.0237
G1 X140.705 Y143.981 E.64672
G1 X140.642 Y143.932 E.0029
G1 X140.197 Y143.277 E.02889
G1 X140.197 Y126.955 E.59553
G1 X140.164 Y127.003 E.0021
G1 X139.689 Y127.7 E.0308
G1 X139.689 Y142.527 E.54096
G1 X139.194 Y140.921 E.06132
G1 X139.194 Y139.232 E.06163
G1 X139.621 Y137.849 E.0528
G1 X139.181 Y137.288 E.02601
G1 X139.181 Y131.312 E.21804
G1 X138.73 Y132.295 E.03946
G1 X138.673 Y132.479 E.00702
G1 X138.673 Y136.701 E.15406
;WIPE_START
G1 X138.673 Y134.701 E-1
;WIPE_END
G1 X146.305 Y134.581 Z.6 F21000
G1 X158.002 Y134.396 Z.6
G1 Z.2
G1 E1 F3600
G1 F3000
G1 X158.871 Y134.495 E.03191
G1 X160.368 Y135.021 E.05786
G1 X161.71 Y135.866 E.05787
G1 X162.831 Y136.988 E.05786
G1 X163.673 Y138.331 E.05785
G1 X163.916 Y139.024 E.02681
G1 X164.197 Y139.828 E.03106
G1 X164.374 Y141.403 E.05784
G1 X164.197 Y142.979 E.05785
G1 X163.674 Y144.476 E.05785
G1 X162.831 Y145.819 E.05784
G1 X162.224 Y146.428 E.03139
G1 X161.71 Y146.942 E.02653
G1 X160.368 Y147.787 E.05785
G1 X158.871 Y148.312 E.05789
G1 X157.294 Y148.492 E.0579
G1 X155.717 Y148.316 E.05792
G1 X154.95 Y148.048 E.02962
G1 X154.95 Y134.759 E.48487
G1 X155.717 Y134.492 E.02962
G1 X157.293 Y134.316 E.05787
G1 X157.934 Y134.389 E.02354
G1 X163.558 Y144.183 F21000
G1 F3000
G1 X163.558 Y139.248 E.18004
G1 X163.528 Y139.16 E.00341
G1 X163.3 Y138.51 E.02512
G1 X163.051 Y138.112 E.01714
G1 X163.051 Y144.695 E.24019
G1 X162.543 Y145.505 E.03486
G1 X162.543 Y137.303 E.29924
G1 X162.507 Y137.246 E.00247
G1 X162.035 Y136.773 E.02437
G1 X162.035 Y146.034 E.3379
G1 X161.933 Y146.137 E.00529
G1 X161.527 Y146.543 E.02093
G1 X161.527 Y136.265 E.37501
G1 X161.452 Y136.189 E.00389
G1 X161.019 Y135.917 E.01864
G1 X161.019 Y146.891 E.40039
G1 X160.511 Y147.21 E.0219
G1 X160.511 Y135.597 E.42372
G1 X160.188 Y135.394 E.01395
G1 X160.003 Y135.329 E.00712
G1 X160.003 Y147.479 E.4433
G1 X159.496 Y147.657 E.01964
G1 X159.496 Y135.151 E.45631
G1 X158.988 Y134.972 E.01964
G1 X158.988 Y147.835 E.46932
G1 X158.778 Y147.909 E.00809
G1 X158.48 Y147.943 E.01097
G1 X158.48 Y134.865 E.47716
G1 X157.972 Y134.807 E.01865
G1 X157.972 Y148.001 E.48138
G1 X157.464 Y148.058 E.01865
G1 X157.464 Y134.749 E.48559
G1 X157.293 Y134.73 E.00629
G1 X156.956 Y134.768 E.01235
G1 X156.956 Y148.04 E.48426
G1 X156.448 Y147.983 E.01864
G1 X156.448 Y134.824 E.48013
G1 X155.94 Y134.881 E.01865
G1 X155.94 Y147.927 E.47599
G1 X155.808 Y147.912 E.00486
G1 X155.433 Y147.781 E.01451
G1 X155.433 Y134.809 E.47331
;WIPE_START
G1 X155.433 Y136.809 E-1
;WIPE_END
G1 X153.62 Y129.395 Z.6 F21000
G1 X145.685 Y96.931 Z.6
G1 Z.2
G1 E1 F3600
G1 F3000
G1 X146.565 Y97.132 E.03292
G1 X148.136 Y98.038 E.06616
G1 X149.37 Y99.367 E.06617
G1 X150.158 Y101 E.06616
G1 X150.295 Y101.908 E.03348
G1 X150.429 Y102.795 E.03275
G1 X150.168 Y104.532 E.06409
G1 X149.755 Y104.119 E.02133
G1 X149.59 Y104.05 E.00653
G1 X129.483 Y104.05 E.73361
G1 X129.377 Y103.705 E.01316
G1 X129.378 Y101.891 E.06619
G1 X129.914 Y100.159 E.06616
G1 X130.422 Y99.414 E.03291
G1 X130.937 Y98.66 E.03329
G1 X132.355 Y97.531 E.06613
G1 X134.042 Y96.869 E.06615
G1 X135.85 Y96.733 E.06614
G1 X136.736 Y96.935 E.03317
G1 X137.618 Y97.136 E.033
M73 P2 R38 QuietR48 SportR36 ; NormalR2295.722s
G1 X137.959 Y97.333 E.01436
G1 X139.149 Y96.866 E.04666
G1 X140.957 Y96.731 E.06615
G1 X141.845 Y96.933 E.03321
G1 X142.457 Y97.073 E.0229
G1 X142.989 Y96.864 E.02086
G1 X144.797 Y96.728 E.06616
G1 X145.619 Y96.916 E.03075
G1 X149.846 Y103.934 F21000
G1 F3000
G1 X149.846 Y101.691 E.08183
G1 X149.76 Y101.123 E.02095
G1 X149.338 Y100.248 E.03544
G1 X149.338 Y103.639 E.1237
G1 X148.83 Y103.639 E.01853
G1 X148.83 Y99.39 E.155
G1 X148.323 Y98.844 E.02723
G1 X148.323 Y103.639 E.17495
G1 X147.815 Y103.639 E.01853
